P3
100 100
255
166 188 123 166 188 123 167 189 124 167 189 124 168 190 125 167 191 126 167 192 127 167 192 127 168 193 128 168 193 128 168 193 128 168 193 127 168 193 127 167 194 127 167 194 127 167 194 127 169 194 129 169 194 129 169 194 129 169 194 129 170 195 130 170 195 130 171 196 131 171 196 131 172 197 132 172 197 132 173 198 133 173 198 132 176 198 133 176 198 133 176 198 133 177 199 134 177 199 134 177 199 134 177 199 133 178 199 133 178 199 135 177 199 135 177 199 135 177 199 135 178 200 136 178 200 136 179 201 137 179 201 137 180 202 138 181 201 139 182 202 141 182 202 141 182 202 141 182 202 141 182 202 141 182 202 141 182 202 141 182 201 140 182 200 140 181 199 139 179 199 138 179 199 138 179 199 138 179 199 138 179 199 138 179 200 138 178 200 138 178 200 138 180 200 139 180 200 139 179 199 139 178 198 139 178 198 139 176 198 137 175 197 135 175 197 135 174 196 134 174 196 134 173 195 132 172 194 130 172 194 130 172 194 131 172 194 132 172 194 132 169 193 131 169 193 131 169 192 130 170 192 130 170 192 130 169 191 129 168 190 128 168 190 127 166 188 124 166 188 124 166 188 124 166 188 124 166 188 124 165 187 123 164 187 120 164 187 118 164 185 116 163 184 115 163 184 116 163 184 117 
167 189 124 168 190 125 168 190 125 167 191 125 168 191 126 167 192 127 168 193 128 168 193 128 170 195 130 170 195 130 170 195 129 170 195 129 170 195 129 169 195 129 169 195 129 169 195 129 170 195 130 170 195 130 170 195 130 170 195 130 171 196 131 171 196 131 171 196 131 172 197 132 173 198 133 173 198 133 174 199 133 174 199 133 177 199 134 177 199 134 177 199 134 178 200 135 178 200 135 178 200 135 179 200 135 179 200 135 179 200 136 179 200 136 178 200 136 178 200 136 179 201 137 179 201 137 180 202 138 180 202 138 181 203 139 182 203 141 183 203 142 183 203 142 183 203 141 183 203 141 183 203 141 183 203 142 183 203 142 183 202 142 183 201 141 183 201 141 181 201 140 181 201 140 181 201 140 181 201 140 181 201 140 181 202 140 180 202 140 180 202 140 181 201 140 181 201 140 180 200 140 180 200 141 179 199 140 177 199 138 176 198 136 175 197 135 174 196 134 174 196 134 173 195 132 173 195 131 172 194 130 172 194 130 172 194 131 172 194 131 169 194 130 169 193 129 169 193 129 170 192 129 170 192 129 169 191 127 168 190 126 168 190 126 166 188 124 166 188 124 166 188 124 166 188 124 166 188 124 165 187 123 164 187 120 164 187 118 163 186 116 162 185 115 162 184 115 162 184 115 
168 191 125 168 191 126 168 192 126 167 192 126 168 193 127 168 193 128 169 194 129 170 195 130 171 196 131 171 196 131 172 197 131 172 197 131 171 196 130 171 196 130 171 196 130 171 196 130 171 196 131 171 196 131 171 196 131 172 197 132 172 197 132 172 197 132 173 198 132 173 198 132 174 199 134 174 199 134 175 200 134 175 199 134 178 200 135 178 200 135 178 200 135 179 201 136 179 201 136 179 201 136 179 201 136 180 201 136 180 201 136 179 201 136 179 201 136 179 201 136 180 202 138 180 202 138 181 203 139 181 203 139 182 204 140 183 203 141 183 203 142 184 204 142 184 204 141 184 204 141 184 204 141 184 204 142 184 204 142 184 204 143 184 203 143 184 203 142 183 203 142 183 203 142 183 203 142 183 203 141 183 203 141 182 203 141 182 203 141 181 203 140 181 202 141 181 202 140 180 201 140 179 199 140 178 199 140 177 198 137 176 198 136 176 198 136 174 196 134 173 196 133 172 195 132 172 195 131 172 195 130 171 194 130 171 194 130 171 194 130 169 194 129 168 193 128 169 193 128 169 192 128 169 192 128 168 191 126 167 190 125 167 190 124 165 188 124 165 188 124 166 188 124 166 188 124 166 188 124 165 187 123 164 187 120 164 187 118 162 186 116 161 185 115 161 185 114 160 184 114 
167 192 126 168 193 127 168 193 127 168 193 127 169 194 128 169 194 129 170 195 130 171 196 131 172 197 132 173 198 133 173 198 133 173 198 132 173 198 132 172 197 131 172 197 131 172 197 131 171 196 130 171 196 130 171 196 130 172 197 132 172 197 132 173 198 133 173 198 132 173 198 131 173 198 132 173 198 132 174 198 132 176 198 133 178 200 135 178 200 135 179 201 136 180 202 137 180 202 137 180 202 137 180 202 137 179 201 136 179 201 136 180 202 137 180 202 137 180 202 137 180 202 137 181 203 138 181 203 139 182 204 140 182 204 140 182 204 140 182 203 140 182 203 140 183 204 141 183 204 141 184 204 141 184 204 141 184 204 141 184 204 142 184 204 142 184 204 142 183 203 141 183 203 141 183 203 141 183 204 140 183 203 140 182 203 139 182 202 139 182 202 139 181 203 141 180 202 140 179 201 140 178 200 139 177 199 138 176 198 136 175 198 135 174 197 134 171 196 131 170 195 130 170 195 130 170 195 129 169 194 128 169 194 128 168 193 128 168 193 128 168 193 126 167 192 126 167 192 125 166 191 124 166 191 123 165 190 122 164 189 122 163 189 121 163 188 121 163 188 121 163 188 121 163 187 121 163 187 121 163 187 121 162 186 118 161 186 116 159 185 114 158 184 113 157 183 112 157 183 112 
167 192 126 168 193 127 168 193 127 169 194 128 169 194 128 170 195 130 171 196 131 172 197 132 173 198 133 173 198 133 174 199 133 173 198 132 173 198 132 173 198 132 173 198 132 173 198 132 171 196 130 171 196 130 171 196 130 172 197 132 172 197 132 173 198 133 173 198 132 173 198 131 172 197 131 172 197 131 174 198 132 176 198 133 178 200 135 178 200 135 179 201 136 180 202 137 180 202 137 180 202 137 180 202 137 179 201 136 179 201 136 180 202 137 180 202 137 180 202 137 180 202 137 181 203 138 180 203 138 179 204 138 179 204 138 180 204 138 180 203 138 180 203 138 180 203 138 180 203 138 181 203 138 182 204 139 182 204 139 182 204 139 182 204 139 182 204 139 181 203 138 181 203 138 181 203 139 180 203 139 180 203 139 179 202 138 179 202 138 179 202 138 177 202 137 177 202 137 176 200 136 175 199 136 174 198 135 172 197 133 171 197 131 171 196 131 169 195 129 168 195 128 167 194 127 167 193 125 166 193 124 165 192 123 165 192 122 165 192 122 164 191 121 164 191 120 163 190 119 162 190 116 162 189 116 161 189 115 161 188 115 160 188 114 160 187 115 160 187 115 160 187 116 160 186 116 160 186 116 160 186 117 159 185 115 158 184 112 157 183 111 156 182 109 155 181 108 155 181 108 
167 192 126 167 192 126 168 193 127 169 194 128 169 194 128 170 195 130 171 196 131 172 197 132 173 198 133 173 198 133 174 199 134 173 198 133 173 198 133 173 198 133 173 198 132 172 197 132 170 197 130 170 197 130 171 196 130 171 196 131 172 197 132 172 197 132 173 198 132 173 198 132 173 198 132 173 198 132 174 198 132 175 199 133 176 200 134 177 200 135 178 200 135 179 201 136 178 202 136 178 202 136 178 202 136 179 201 136 179 201 136 180 202 137 180 202 137 180 202 137 180 202 137 180 202 137 180 203 138 179 204 138 179 204 138 179 204 138 179 204 138 178 203 136 178 203 136 178 203 135 178 203 136 179 203 137 179 203 137 178 202 137 178 202 137 178 202 136 177 201 136 177 201 136 177 202 135 177 202 135 176 201 135 176 201 135 176 201 135 176 201 135 175 201 135 174 200 134 173 199 133 172 198 132 171 197 131 170 197 128 169 196 126 168 195 126 167 194 125 167 194 125 166 193 123 165 193 120 165 193 120 165 192 120 164 192 120 164 191 119 163 191 117 162 190 116 162 190 115 161 189 112 160 189 110 160 189 110 159 187 111 159 187 112 160 188 113 160 188 113 159 187 113 159 187 113 159 187 113 158 186 113 157 185 112 156 184 110 156 183 109 155 182 108 154 181 107 153 181 106 
166 191 125 167 192 125 167 192 126 168 193 126 168 194 127 169 195 129 171 196 131 172 197 132 172 197 132 173 198 133 173 198 133 173 198 133 173 198 133 173 198 133 173 198 133 172 197 132 170 197 130 170 197 130 170 197 130 171 196 130 172 197 131 172 197 131 173 198 132 173 198 132 173 198 132 173 198 132 173 198 132 174 199 133 174 199 133 175 200 134 176 200 135 176 201 135 177 202 136 177 202 136 177 202 136 178 201 136 178 201 136 178 201 136 179 201 136 179 201 136 179 202 136 179 202 136 179 202 136 178 203 137 178 203 137 178 203 137 178 203 136 177 202 133 177 202 134 176 201 133 176 201 133 176 201 133 176 201 133 176 201 133 176 201 133 175 200 132 175 200 132 175 200 132 175 200 132 175 200 131 175 200 131 175 200 132 175 200 133 175 200 133 173 200 130 172 199 129 171 198 128 170 197 126 169 197 125 168 196 123 168 196 122 167 195 121 167 195 122 167 194 121 166 194 120 165 193 118 165 193 118 165 193 118 164 192 117 164 192 117 163 191 115 162 190 115 161 189 113 160 189 110 159 189 107 159 188 106 159 188 107 158 187 108 159 187 109 159 187 109 158 187 110 158 186 110 158 186 110 157 186 110 156 184 109 155 183 108 154 183 106 153 181 105 153 181 105 152 180 105 
165 190 122 166 191 123 166 191 123 166 193 124 166 193 124 168 194 128 170 195 130 171 196 131 172 197 132 172 197 132 173 198 133 173 198 133 173 198 133 173 198 133 173 198 132 172 197 132 170 197 128 170 197 128 170 197 128 170 197 129 171 198 130 172 197 131 173 198 132 173 198 132 173 198 132 173 198 132 173 198 132 173 198 132 174 199 133 174 200 134 175 201 135 175 202 135 176 201 135 176 201 135 176 201 135 177 202 136 177 202 136 177 202 136 177 202 136 177 202 136 177 202 134 177 202 134 177 202 134 178 203 135 178 203 135 178 203 135 178 203 134 177 203 132 177 203 132 176 202 131 176 202 131 175 202 131 175 202 131 175 201 131 175 201 131 174 200 130 174 200 130 174 200 130 174 200 129 173 200 129 173 200 129 174 200 130 175 200 130 174 200 130 172 200 126 171 199 125 171 199 124 170 198 122 170 198 122 168 196 120 167 195 119 167 195 119 167 195 120 167 195 119 165 194 118 163 194 116 163 194 116 163 192 115 164 192 114 163 191 114 162 190 113 161 190 112 160 189 111 158 189 107 157 189 105 158 189 104 158 187 104 158 187 105 157 186 105 157 186 105 157 186 105 157 186 105 157 186 105 156 185 105 155 184 105 154 183 104 153 182 102 152 181 101 151 180 101 151 179 102 
163 190 119 164 191 120 164 191 120 165 192 121 166 193 122 168 195 125 169 196 127 170 197 130 172 197 131 172 197 131 173 198 132 173 198 132 173 198 132 172 198 131 171 198 129 171 198 129 170 197 126 170 197 126 170 197 126 170 197 126 171 198 129 171 198 131 172 199 132 173 200 132 172 199 130 172 199 130 172 199 130 173 200 131 173 200 131 174 201 132 174 201 132 175 202 133 175 202 133 175 202 134 176 202 135 177 202 136 177 202 136 176 201 133 175 200 132 175 201 130 176 201 133 176 201 133 177 202 133 177 203 132 177 203 132 176 203 132 176 203 132 175 202 131 175 202 131 175 202 131 175 202 131 174 201 129 173 201 127 173 201 127 174 202 128 174 201 128 172 200 126 172 200 126 172 200 126 172 200 126 172 200 126 173 201 127 173 201 127 173 201 127 172 200 126 172 200 126 171 199 125 170 198 124 169 197 121 168 196 119 168 196 119 167 195 118 166 194 117 166 194 117 166 194 116 165 194 114 165 194 114 164 193 112 163 192 111 162 191 109 162 191 109 161 190 108 161 190 108 160 189 107 159 188 106 159 188 105 158 187 103 158 187 103 156 188 105 155 187 104 155 187 103 154 186 101 153 185 103 154 184 101 155 184 100 154 183 99 153 182 100 153 182 100 152 181 99 151 180 98 
162 189 118 163 190 119 164 191 119 165 192 120 166 193 121 167 195 121 168 195 123 169 196 126 170 197 128 171 197 129 171 198 129 171 198 130 171 198 130 171 198 129 171 198 128 170 197 127 170 198 125 170 198 125 170 198 125 170 198 125 171 198 128 171 198 129 172 199 130 173 200 131 173 200 131 173 200 131 173 200 131 173 200 131 173 200 131 173 200 131 174 201 132 174 201 132 175 202 133 175 202 134 175 202 135 176 201 135 176 201 135 175 200 133 175 200 132 175 201 130 175 201 130 176 202 131 176 202 131 176 202 130 176 202 130 175 202 130 175 203 130 175 203 130 175 202 131 175 202 131 174 201 130 174 202 129 173 201 127 173 201 126 173 201 126 173 201 126 172 200 125 172 200 125 172 200 125 172 200 125 172 200 125 173 201 126 173 201 126 173 201 126 173 201 127 172 200 126 172 200 126 170 198 124 169 197 122 168 196 119 168 196 119 167 195 118 166 195 115 166 195 115 166 195 115 165 194 113 165 194 113 165 194 111 164 193 110 163 192 109 162 191 109 162 191 109 161 190 108 160 189 107 160 189 107 159 188 105 159 188 104 158 187 103 156 188 105 156 188 105 155 187 103 154 186 101 153 186 100 153 185 100 153 185 99 153 184 98 153 182 99 153 182 98 152 181 97 151 180 97 
163 189 118 163 190 119 164 191 119 164 192 119 165 193 120 166 194 120 167 195 121 169 196 123 170 197 125 170 197 125 170 198 127 170 197 128 170 197 128 170 198 126 170 197 124 170 197 124 170 198 123 170 198 123 170 198 123 170 198 124 171 198 126 171 198 127 172 199 127 172 200 128 173 200 130 173 200 130 173 200 131 173 200 131 173 200 130 173 200 130 173 200 131 174 201 131 175 202 133 175 202 134 175 201 134 175 201 134 175 201 134 175 201 133 175 200 132 175 201 131 175 201 129 175 201 129 175 202 129 175 202 129 175 202 129 175 202 129 175 203 129 175 203 129 174 201 129 174 201 129 174 201 129 174 201 128 173 201 127 173 201 125 172 200 125 172 200 125 171 199 122 171 199 121 171 199 122 171 199 122 171 199 122 172 200 125 173 201 126 173 201 126 173 201 127 172 200 126 172 200 125 170 198 124 169 197 122 168 196 120 168 196 119 167 195 118 166 195 114 166 195 113 166 195 113 165 194 112 165 194 112 165 194 111 164 193 109 163 192 108 163 192 109 162 191 108 161 191 108 160 190 107 159 189 106 159 189 105 159 189 104 159 189 104 158 189 105 157 188 105 156 187 103 154 187 101 153 186 98 153 186 98 153 186 97 152 185 97 152 183 97 152 182 97 151 181 96 150 181 95 
166 189 119 164 189 119 164 190 119 164 191 120 165 193 120 166 194 120 167 195 121 168 196 122 169 197 123 169 197 123 169 197 123 169 197 123 169 197 123 169 197 121 169 197 120 169 197 120 169 197 122 169 197 122 169 197 122 169 197 123 170 198 123 171 199 124 171 199 125 172 200 126 172 199 127 172 200 127 172 200 128 172 200 127 172 200 127 172 199 128 173 200 129 173 200 129 174 201 132 174 201 132 174 201 132 174 201 132 174 201 132 173 200 131 173 200 131 173 200 131 173 200 129 173 200 129 173 200 129 174 201 130 174 202 128 173 201 127 173 201 127 173 201 127 173 201 127 173 201 127 173 201 127 172 200 126 172 200 125 171 199 123 171 199 122 171 199 122 171 200 120 171 200 120 171 199 120 171 199 122 171 199 122 171 199 124 172 200 125 172 200 125 172 200 125 172 200 125 171 199 124 170 198 123 168 196 121 168 196 121 167 195 120 166 194 117 166 195 114 165 194 112 165 194 111 165 194 111 165 194 111 165 194 110 164 193 109 164 193 109 163 192 108 162 191 107 160 190 106 158 190 105 157 189 104 158 190 105 158 190 105 158 190 105 159 188 104 159 188 104 157 187 102 154 187 100 153 186 97 152 185 95 152 185 94 151 184 93 151 184 95 150 183 94 150 183 94 149 182 93 
166 189 119 164 189 119 164 190 119 164 191 120 165 193 120 166 194 120 166 194 120 167 195 121 167 197 121 167 197 121 166 197 120 166 197 119 166 197 119 167 196 118 167 196 117 167 196 117 167 197 119 167 197 119 167 197 120 168 196 121 169 197 121 169 197 122 170 198 123 171 199 124 170 198 123 171 199 123 172 200 124 172 200 126 172 200 126 172 199 127 172 199 128 173 200 129 173 200 131 173 200 131 173 200 131 173 200 131 173 200 131 173 200 131 173 200 131 173 200 131 172 199 128 172 199 128 172 199 128 172 199 128 172 200 127 172 200 126 172 200 126 173 201 127 172 200 126 172 200 126 172 200 126 172 200 125 171 199 122 171 200 121 171 200 120 171 200 120 170 199 117 170 199 117 170 199 118 170 199 119 170 199 119 170 199 121 171 199 122 172 200 123 171 199 122 170 198 121 170 198 121 169 197 122 168 196 121 167 195 120 166 194 118 165 193 115 165 194 112 164 193 109 164 193 108 163 193 108 163 193 108 164 194 108 164 193 108 163 193 107 163 192 108 161 190 106 160 190 106 157 189 104 157 189 104 158 190 105 158 190 105 158 190 105 157 189 104 157 189 104 155 188 102 154 187 100 152 185 97 151 184 94 151 184 93 151 184 93 151 184 95 151 184 95 150 183 94 149 182 93 
166 189 118 165 189 118 164 190 118 164 191 119 165 192 119 165 193 119 166 194 120 167 195 121 166 197 121 166 197 119 165 196 118 165 196 116 165 196 115 165 196 115 165 195 115 165 195 115 166 196 117 167 196 118 167 196 120 168 196 120 168 196 121 169 197 122 169 197 122 170 198 123 170 199 120 170 199 120 170 199 121 171 199 123 171 199 124 171 198 126 171 198 127 172 199 128 173 200 131 173 200 131 173 200 131 172 199 130 172 199 130 172 199 130 172 199 130 172 199 130 171 198 127 171 198 127 171 198 127 171 199 126 172 199 126 172 200 126 172 200 126 173 201 127 173 200 128 172 199 127 172 200 127 171 199 124 169 199 121 169 199 118 169 200 118 169 200 118 169 200 116 169 199 117 168 199 118 168 198 118 168 198 118 168 198 119 169 199 120 169 199 120 170 198 121 169 197 120 168 196 120 168 196 121 167 195 121 166 194 119 165 193 117 164 193 115 164 193 111 163 192 107 162 192 105 162 192 105 162 192 105 163 193 106 163 193 106 163 193 106 162 192 106 162 191 106 160 190 106 157 189 104 157 189 105 157 189 105 157 189 104 157 189 104 158 188 104 158 188 104 156 187 102 155 186 99 154 185 96 153 184 94 153 184 94 153 184 94 153 184 96 153 184 96 152 183 95 149 182 93 
166 189 119 165 190 119 164 190 118 163 191 117 164 192 118 164 192 118 165 193 119 167 195 120 165 196 121 166 197 120 165 196 117 164 195 115 164 196 113 164 196 113 164 196 113 164 196 113 167 195 117 167 195 119 168 196 121 168 196 121 168 196 121 168 196 122 169 197 122 170 198 123 169 197 120 169 197 120 170 198 120 170 198 122 170 198 124 171 198 126 171 198 127 172 199 128 173 200 130 173 200 130 173 200 130 172 199 130 171 198 129 171 198 129 171 198 129 171 198 129 171 198 127 171 198 127 171 198 127 171 199 126 171 199 126 171 199 127 172 199 128 172 199 128 173 200 129 172 199 128 172 199 127 171 199 124 168 198 120 167 198 116 166 198 115 166 198 115 167 199 114 167 198 116 167 198 118 167 198 118 167 198 118 167 198 118 166 197 117 166 197 117 168 196 119 167 195 118 167 195 118 167 195 120 167 195 120 166 194 120 165 193 118 165 193 116 163 192 112 162 191 107 161 191 105 161 191 105 161 191 105 162 192 106 163 193 107 163 193 107 162 192 106 162 191 107 160 190 107 158 190 106 157 189 107 157 189 106 157 189 106 157 189 106 159 188 105 159 188 105 158 187 103 156 186 101 155 185 98 154 184 97 154 184 97 154 184 97 154 184 98 154 183 98 152 183 96 150 183 94 
167 190 122 166 190 122 164 190 121 163 190 120 164 191 121 165 192 121 166 193 122 167 194 123 165 195 122 166 197 122 166 197 121 165 196 119 165 196 117 164 196 117 164 195 117 164 195 117 167 195 119 167 195 120 168 196 122 168 196 122 168 196 122 168 196 121 168 196 122 169 197 122 169 197 122 169 197 122 169 197 121 169 197 122 170 198 124 171 199 127 172 199 128 173 200 129 173 200 129 173 200 129 173 200 129 172 199 128 171 198 127 171 198 127 171 198 127 171 198 127 171 198 127 171 198 127 171 198 127 171 198 127 171 198 127 172 199 129 173 200 130 173 200 131 173 200 129 172 199 128 172 199 127 171 199 125 168 199 120 167 198 117 166 198 116 166 198 116 167 199 115 167 199 116 167 198 118 167 198 118 167 198 118 167 198 118 166 197 117 166 197 118 168 196 119 168 196 119 167 195 118 167 195 119 166 194 120 166 194 120 165 193 119 165 193 118 164 193 114 163 192 110 162 191 107 162 191 107 162 191 107 163 192 107 163 192 108 163 192 108 162 191 107 162 191 108 160 190 108 158 190 108 158 189 109 157 188 108 157 188 108 157 188 108 160 189 107 160 189 107 158 187 106 157 186 104 155 185 101 155 184 100 155 184 100 155 184 100 154 183 101 154 183 100 152 182 98 150 183 96 
165 190 122 166 191 123 165 190 123 164 191 124 165 192 125 166 192 126 167 193 126 168 194 127 169 196 128 169 196 127 169 196 125 169 196 124 168 196 122 167 195 121 167 195 120 167 195 120 168 196 122 168 196 122 168 196 123 168 195 125 168 195 125 169 196 125 170 196 125 170 196 125 170 196 124 170 196 124 170 196 124 171 197 125 172 197 128 173 198 131 173 199 132 174 199 133 174 199 131 174 200 130 174 200 129 173 200 129 172 199 128 172 199 128 173 198 128 173 198 130 171 198 129 171 198 129 171 198 129 172 199 130 172 199 130 173 200 131 173 200 132 174 201 132 174 201 134 174 201 132 172 200 129 172 200 126 171 199 125 169 199 123 169 199 122 169 199 122 169 199 120 169 199 120 169 199 120 169 199 121 169 199 121 168 198 120 168 198 120 168 198 122 170 198 123 169 197 122 168 195 123 169 195 124 169 195 124 169 195 124 168 194 123 168 194 122 167 194 121 167 193 119 165 192 116 164 192 113 164 192 113 164 192 114 164 192 114 164 192 114 163 192 113 163 191 112 163 191 113 162 190 112 161 189 112 161 189 113 161 189 113 161 189 113 162 189 113 161 188 112 159 186 110 157 185 107 156 184 106 156 184 106 156 184 106 156 185 106 156 184 107 157 183 107 157 181 106 155 180 105 
166 191 125 167 192 126 166 191 126 167 191 126 167 192 126 168 192 127 168 193 128 169 194 128 170 195 131 170 195 130 169 195 128 169 194 126 169 195 125 169 195 125 169 195 125 169 195 125 169 195 126 169 195 126 170 195 126 171 195 128 171 195 128 171 196 127 172 196 127 172 196 127 171 195 125 171 195 125 172 196 126 173 197 128 173 197 130 174 198 132 175 198 133 176 199 134 175 200 132 175 200 131 175 201 130 174 200 129 173 199 128 173 199 128 173 199 129 173 198 130 173 198 130 173 198 130 173 198 130 173 198 130 173 199 131 174 200 133 175 200 134 175 201 135 175 201 136 175 201 135 174 200 132 173 200 130 172 199 130 172 199 128 172 199 127 172 199 127 171 199 125 171 199 125 171 199 125 171 199 125 171 199 125 171 199 124 170 198 124 170 198 125 172 199 127 171 197 127 171 196 129 171 196 129 171 196 129 173 196 131 173 196 131 172 195 130 171 195 127 170 194 124 168 193 121 167 192 120 166 192 119 166 193 119 166 193 118 166 193 119 165 192 118 165 191 118 165 191 118 165 191 119 165 191 119 166 190 120 165 189 120 165 189 120 164 189 119 163 188 119 162 187 116 161 186 112 161 185 112 161 185 111 161 184 111 161 185 111 162 184 111 163 184 111 163 182 110 163 180 109 
167 191 127 168 192 128 168 192 127 170 191 127 170 192 128 170 192 128 171 193 129 171 193 129 171 195 130 171 195 130 171 194 129 170 194 129 170 195 128 170 194 128 170 194 128 170 194 128 171 195 129 171 195 129 172 195 129 174 195 130 174 195 130 173 196 129 173 196 128 173 196 128 173 196 128 173 196 128 174 196 129 174 197 130 175 196 131 176 197 133 176 198 133 177 199 134 175 200 132 175 201 131 175 201 130 175 200 130 174 200 130 174 200 129 174 199 130 174 199 131 174 198 130 174 199 131 174 199 131 174 199 132 175 200 132 176 200 135 177 201 136 177 201 137 177 202 138 177 202 137 176 201 135 174 201 134 174 200 134 174 200 133 174 199 133 174 199 133 174 198 131 174 198 131 174 198 130 173 199 129 173 199 129 173 199 127 173 198 128 173 198 129 175 199 131 175 198 132 175 198 133 176 198 134 176 198 134 177 198 134 177 198 134 177 197 133 175 197 132 174 196 130 172 195 127 171 194 125 171 194 125 169 194 123 167 193 122 167 193 122 168 193 121 168 193 121 168 193 121 169 192 121 169 192 121 170 192 123 170 191 123 170 190 123 170 189 122 170 189 122 169 188 120 167 187 118 166 187 117 167 186 115 167 185 114 167 185 114 169 183 115 171 183 115 171 182 114 170 181 112 
171 191 128 171 191 128 172 192 129 172 192 129 172 192 129 172 192 129 172 192 129 173 193 130 174 194 131 174 194 131 173 193 130 173 194 129 173 194 129 172 194 129 172 194 129 172 194 129 173 195 130 174 196 131 174 196 130 175 196 129 175 196 129 175 196 129 175 196 129 175 196 129 174 195 130 174 195 130 174 195 130 175 196 131 176 197 132 176 198 133 176 198 133 177 199 134 175 200 131 175 200 131 175 200 131 175 200 132 175 200 132 175 200 132 174 199 131 174 199 131 176 199 131 177 200 132 177 200 133 177 200 135 178 201 135 179 202 137 180 202 138 180 202 138 179 202 138 179 202 138 179 202 138 178 201 136 178 201 136 178 201 136 177 200 135 177 200 134 177 199 134 177 199 134 176 198 132 175 199 131 175 199 131 175 199 131 175 199 131 176 200 132 179 200 135 179 200 135 179 199 135 179 199 136 179 199 136 178 198 135 179 197 135 181 197 135 179 198 134 177 197 132 175 195 130 173 195 128 173 194 127 171 194 126 170 193 125 169 193 125 170 193 123 170 193 123 170 193 123 171 193 123 172 193 124 173 192 125 175 191 126 176 191 126 175 190 125 174 189 124 173 188 123 172 187 122 171 186 121 170 185 117 171 185 116 172 185 116 173 184 118 174 184 119 173 182 116 172 181 114 
173 190 128 174 191 129 175 191 129 175 191 128 175 191 128 175 191 129 175 192 129 176 193 130 175 194 130 175 194 130 174 193 129 173 194 129 173 194 129 173 194 129 173 195 130 174 195 130 176 197 132 176 197 132 176 197 132 176 197 130 176 197 130 175 196 129 175 196 129 175 196 129 175 196 131 175 196 131 175 196 131 176 197 132 177 198 133 177 198 133 177 199 134 177 199 134 176 201 134 176 201 134 176 201 134 175 200 134 175 200 134 175 200 134 175 200 134 175 200 134 177 199 134 177 199 134 178 200 135 179 200 135 179 201 136 181 201 137 181 201 138 181 201 138 181 202 139 181 202 139 181 202 139 181 202 138 181 202 138 181 202 138 180 201 138 180 201 137 179 200 135 179 200 135 178 199 134 177 199 132 177 199 132 177 199 132 177 200 132 178 200 133 180 201 136 180 201 136 180 200 136 181 199 137 181 199 137 180 199 136 180 198 136 182 198 136 181 198 136 179 196 134 177 195 133 175 195 131 173 193 129 172 193 127 171 193 126 170 192 125 170 193 123 170 193 123 171 193 124 174 194 127 175 193 127 176 192 127 177 192 127 178 191 127 177 190 126 175 189 125 175 189 124 173 187 123 172 186 121 171 185 118 171 185 116 172 185 116 173 184 118 174 185 119 174 183 118 174 183 118 
175 189 127 176 190 127 176 191 128 177 192 128 177 192 128 177 192 128 177 192 128 178 193 129 177 193 129 177 193 129 176 193 128 175 192 128 175 192 129 175 193 129 175 195 131 176 196 132 178 198 133 178 198 132 178 199 131 177 198 130 177 198 130 176 197 130 176 197 130 177 198 131 177 198 133 177 198 133 177 198 133 178 199 134 179 200 135 179 200 135 179 200 135 179 200 135 178 201 136 178 201 136 178 201 136 177 200 135 177 200 134 176 200 135 177 200 135 177 200 135 177 199 134 178 200 135 178 200 135 179 200 135 180 201 136 182 202 138 182 203 139 182 202 139 183 203 140 182 202 139 182 202 139 182 202 139 182 202 139 182 202 140 182 202 140 182 202 139 181 200 137 180 200 135 179 199 133 178 199 132 178 199 132 178 199 132 179 200 133 178 199 132 179 200 134 179 200 135 179 199 135 180 198 136 180 198 136 180 199 137 181 199 137 181 198 136 182 198 136 181 197 135 179 195 133 176 194 131 173 192 128 171 192 127 170 193 125 170 193 124 170 193 123 170 193 125 173 195 128 175 195 130 176 195 130 177 194 130 178 193 130 178 191 127 176 190 126 175 189 125 175 189 124 173 187 123 172 186 121 171 186 120 171 186 119 172 186 119 173 185 120 173 184 120 173 184 119 173 183 119 
176 188 125 177 189 124 177 190 124 178 191 126 179 191 126 178 191 127 178 192 127 178 192 127 179 193 128 179 193 128 178 193 128 177 193 128 177 192 130 177 194 130 177 195 131 178 196 133 179 198 134 179 198 132 179 199 130 179 200 131 178 199 130 177 198 130 176 197 130 177 198 131 177 198 133 178 199 134 179 200 135 179 200 135 180 201 136 180 201 136 180 201 136 180 201 136 179 201 137 179 201 137 179 201 137 178 200 135 178 200 135 177 199 135 178 200 136 178 200 136 177 199 135 178 200 136 179 200 136 180 200 137 181 200 137 182 201 139 184 202 141 184 202 140 183 203 140 182 202 139 182 202 139 182 202 140 184 203 141 184 203 142 183 202 141 182 202 139 182 200 138 181 200 136 179 199 133 178 199 132 178 199 132 179 200 133 179 200 133 178 199 132 178 199 132 178 199 133 178 199 135 179 197 135 179 198 136 180 198 136 180 198 136 180 198 136 181 198 136 180 197 135 178 195 133 175 193 131 172 193 128 170 192 127 169 192 125 169 192 123 168 192 123 171 194 128 173 196 132 174 196 132 175 195 132 175 194 131 175 192 130 175 191 127 174 190 126 173 189 125 172 189 125 170 188 124 169 186 123 168 186 121 168 186 120 168 185 120 168 185 120 167 185 119 167 184 119 168 184 120 
175 186 122 176 188 121 177 188 121 178 189 123 178 190 124 179 190 126 179 191 127 179 191 127 180 192 128 180 192 128 179 192 128 178 193 128 178 192 130 178 193 131 179 195 132 180 196 133 180 199 135 180 199 133 180 200 131 179 200 131 179 200 131 177 198 130 176 197 130 177 198 131 178 199 134 179 200 135 179 200 135 180 201 136 180 201 136 180 201 136 181 202 137 181 202 137 181 201 138 181 201 138 181 201 137 180 201 136 179 200 135 178 199 135 179 199 136 179 199 136 178 198 137 179 199 138 179 200 138 180 201 139 181 200 140 185 202 142 187 202 145 191 205 153 196 210 162 202 213 167 202 213 167 197 208 159 192 205 152 186 203 144 185 203 142 183 201 139 182 200 138 181 200 136 179 199 133 178 199 132 178 199 132 178 199 132 177 198 131 176 198 130 176 197 130 177 198 132 178 199 134 177 197 134 177 197 134 178 197 134 179 197 135 179 197 135 179 197 135 178 196 134 176 195 133 173 194 131 171 193 128 169 191 126 169 192 124 169 192 123 168 193 125 170 195 130 171 195 134 173 196 136 174 195 136 173 194 133 171 191 128 171 190 127 170 190 125 169 190 125 169 189 125 166 188 124 165 187 123 164 186 120 164 186 119 163 185 118 162 186 118 162 186 118 161 185 118 161 184 119 
175 185 122 176 187 121 177 188 122 178 188 124 178 188 125 179 189 126 180 190 127 180 190 128 180 192 128 180 192 128 179 192 128 178 192 130 179 193 131 179 194 131 179 195 132 181 197 134 182 198 133 181 198 133 181 198 132 179 198 132 178 197 131 177 197 129 176 197 129 178 199 132 177 198 131 178 199 132 178 199 132 179 200 134 179 200 134 179 200 134 179 200 135 180 201 136 181 202 137 182 202 137 181 200 136 180 200 136 180 199 135 179 198 133 179 198 134 179 198 135 178 198 135 179 199 138 185 201 147 191 205 155 194 206 161 213 217 181 229 229 205 240 235 216 247 239 226 247 239 226 248 239 226 248 240 228 245 239 224 233 230 208 212 219 181 190 204 149 183 201 138 180 200 136 179 200 134 179 200 133 177 200 132 175 200 130 174 199 128 173 199 128 173 197 129 173 198 132 174 198 132 175 197 132 175 197 132 177 197 133 178 196 134 179 197 135 179 197 135 176 196 133 174 196 131 172 194 129 170 193 128 167 191 126 166 191 125 166 191 125 168 193 127 170 194 130 170 194 133 170 196 135 170 196 135 170 194 134 167 191 129 166 190 125 167 189 124 166 188 123 166 189 124 163 188 123 162 187 122 161 187 121 160 186 118 159 186 114 159 186 116 159 186 116 158 185 115 158 183 115 
173 185 122 175 187 124 176 187 125 178 189 128 178 189 128 178 190 128 178 190 128 179 191 129 179 192 129 178 191 129 177 191 128 177 192 130 179 194 131 178 195 132 178 195 132 179 197 133 180 199 133 179 198 132 178 197 131 177 196 130 176 195 129 174 195 127 176 197 130 178 199 133 178 199 133 177 198 133 177 198 132 177 199 132 177 199 131 176 198 131 176 198 131 177 199 132 178 199 134 180 199 135 179 198 134 179 198 134 178 197 133 177 197 131 177 197 132 177 197 134 178 198 136 190 203 153 228 221 192 240 230 208 244 236 222 247 238 227 248 236 222 247 233 213 245 230 210 242 227 203 239 224 199 239 223 200 241 226 204 245 231 211 247 235 215 240 234 213 207 215 174 180 200 136 179 200 134 179 200 133 177 199 131 174 199 128 172 198 126 172 198 126 172 197 127 172 197 130 172 197 131 173 197 131 173 197 131 175 196 132 176 197 133 177 197 133 177 197 133 174 196 131 171 195 127 168 194 125 166 192 123 165 191 123 165 191 123 165 191 124 167 192 126 168 193 129 168 193 131 168 194 132 168 194 132 167 192 130 165 190 126 163 189 122 163 188 121 163 188 122 163 189 124 162 187 122 161 187 122 160 187 120 158 185 115 157 185 111 158 186 113 157 185 110 156 183 108 155 182 110 
170 185 123 172 187 126 174 188 128 177 189 129 177 189 129 175 189 128 175 189 128 175 189 128 175 190 128 175 190 128 174 190 128 174 191 128 176 193 130 175 194 130 174 194 130 175 195 130 176 198 130 176 197 130 175 196 129 175 195 129 174 193 127 173 194 127 174 195 130 175 196 131 176 197 132 175 197 132 174 196 130 172 196 128 172 196 126 170 195 124 170 194 123 171 195 125 174 196 131 175 196 132 175 195 131 176 196 132 176 195 131 173 195 128 173 194 129 174 195 131 192 205 158 230 223 201 239 224 203 245 233 217 244 233 219 239 224 204 235 218 192 235 217 189 236 218 192 237 219 192 238 220 192 234 214 184 229 206 175 231 209 180 236 218 188 240 225 198 242 233 212 192 206 155 179 200 136 178 199 132 175 198 130 171 197 125 170 196 122 169 196 122 169 196 123 170 197 126 171 196 128 172 197 130 172 197 130 173 197 130 173 196 130 174 197 131 173 196 131 171 195 127 167 194 123 166 193 120 163 191 117 162 190 116 162 190 116 162 190 117 164 191 123 165 192 126 165 192 126 164 192 124 164 192 124 163 190 122 162 189 118 161 188 115 160 188 116 161 187 120 162 188 123 161 187 121 160 186 120 159 186 118 157 185 112 156 184 109 156 185 108 154 183 102 152 181 99 152 181 101 
167 185 123 168 186 124 170 187 125 172 188 126 172 188 126 171 188 126 171 187 125 171 188 126 171 189 127 171 190 128 171 190 128 172 192 129 172 192 129 173 194 130 172 194 128 172 195 127 172 195 127 172 195 127 171 193 126 171 192 127 169 191 126 171 192 127 172 193 128 172 194 129 172 194 130 171 195 130 169 194 127 166 192 121 165 192 118 163 191 116 162 190 114 163 191 116 167 192 123 168 193 127 170 194 129 172 193 130 171 192 129 169 192 126 167 193 124 176 196 138 218 215 183 233 219 193 237 223 197 232 217 193 227 210 183 220 199 168 216 194 164 220 199 170 220 200 173 210 188 157 219 198 166 229 209 179 220 194 161 217 189 155 228 201 167 233 214 181 239 224 200 217 219 187 179 199 139 175 198 133 170 197 124 168 196 121 167 195 116 167 195 116 167 195 117 168 196 121 169 196 124 170 196 125 170 196 125 170 196 125 171 196 128 171 196 129 169 194 128 167 193 123 165 193 119 163 191 111 160 189 107 159 188 108 158 188 109 158 187 110 158 188 115 159 189 118 159 190 115 158 189 114 159 189 114 158 187 111 157 187 110 157 186 110 157 186 110 157 185 112 158 185 115 158 185 114 158 185 114 158 185 114 157 185 109 155 183 106 153 183 104 151 182 97 149 180 93 150 180 93 
164 184 119 165 185 121 166 186 122 167 186 123 167 186 123 166 186 123 166 186 123 167 187 124 167 188 125 168 189 126 169 189 126 169 191 127 170 191 128 170 193 128 169 193 127 169 193 125 168 193 125 167 192 124 167 191 124 168 190 125 166 188 123 167 190 125 168 191 126 168 191 125 168 192 127 167 193 125 164 192 120 161 190 113 160 189 109 157 188 106 157 189 104 158 190 107 162 190 114 165 192 121 166 192 125 167 192 127 167 191 127 165 191 123 166 193 123 203 209 170 227 213 185 219 199 166 213 187 151 206 181 149 205 181 148 193 168 131 192 166 131 193 169 136 193 172 140 175 149 117 160 135 107 209 188 161 210 186 155 206 177 139 220 193 159 233 213 187 226 210 182 236 227 204 181 200 144 169 195 124 166 194 119 163 193 115 161 193 109 161 193 109 164 193 112 165 193 117 167 194 121 169 195 124 168 194 123 168 194 123 168 193 125 169 194 127 167 192 124 164 191 119 162 191 114 158 189 105 154 186 100 153 185 102 153 185 104 152 184 104 153 186 106 154 187 109 154 187 106 153 185 104 154 186 105 153 185 102 153 186 103 154 186 103 153 185 103 152 183 102 152 183 103 153 183 104 153 184 105 155 184 108 155 183 108 153 182 102 151 182 101 148 181 94 146 179 89 147 179 89 
162 183 116 162 183 116 163 184 116 162 184 118 162 184 118 162 184 119 163 184 120 163 185 120 164 186 120 165 188 121 166 189 122 167 189 122 167 190 122 166 191 123 165 191 122 165 191 121 165 190 122 165 190 122 164 189 122 164 189 123 162 187 120 162 188 119 164 189 123 164 189 123 164 190 122 163 191 118 160 189 113 157 189 108 156 188 103 153 186 98 152 185 98 154 187 101 159 189 111 163 190 118 164 191 124 168 193 129 174 195 137 177 196 140 203 213 175 236 227 205 229 210 185 217 196 168 194 169 135 190 165 133 189 164 128 184 157 120 178 152 116 183 164 135 197 176 149 142 117 89 96 73 56 160 136 111 210 185 157 223 197 166 222 194 164 232 207 177 220 198 166 201 179 151 199 204 155 163 192 117 160 192 109 159 191 107 158 190 105 159 191 105 160 191 108 162 192 114 165 193 119 166 193 121 165 192 119 164 191 119 165 191 122 165 191 124 164 191 121 162 190 116 158 188 111 155 187 103 151 185 98 150 184 98 150 184 98 149 183 99 150 184 101 151 184 102 150 184 100 149 183 99 150 184 100 149 183 96 150 184 97 150 184 98 149 183 96 148 181 95 148 181 95 149 182 96 150 182 98 153 183 103 153 183 104 151 182 99 149 182 97 147 180 91 144 178 85 144 177 86 
159 180 111 159 180 109 159 180 109 159 180 110 160 180 112 161 181 114 162 182 116 163 183 117 163 184 117 164 185 118 165 186 118 165 187 117 165 187 117 163 188 116 162 188 115 162 188 117 163 188 120 163 188 121 162 187 120 161 187 118 160 186 115 159 185 112 160 186 113 160 187 114 159 187 112 159 188 109 158 188 108 155 187 105 153 186 99 150 183 95 150 183 96 153 185 100 156 187 108 160 189 116 163 190 121 175 195 139 218 218 186 234 224 201 236 222 199 233 216 190 213 187 152 194 168 132 209 190 163 195 173 142 182 156 122 170 141 105 165 141 109 181 165 144 97 84 68 48 46 45 42 39 40 96 74 60 200 170 142 235 210 178 241 219 190 240 220 193 243 223 198 230 209 186 223 215 184 170 193 123 158 190 106 157 189 104 156 188 103 156 188 103 158 190 106 159 190 111 162 192 116 162 190 116 161 189 115 160 188 115 162 189 118 162 189 120 162 188 121 159 188 117 156 186 111 153 184 105 150 184 99 149 183 97 147 181 95 146 180 94 148 182 98 148 182 98 147 181 96 147 181 95 147 181 95 146 180 94 147 181 95 147 181 95 146 181 92 145 180 90 144 179 90 145 179 92 148 180 95 150 182 99 150 182 99 149 181 96 147 180 92 145 178 88 143 177 84 143 176 86 
160 177 107 159 176 105 158 176 103 159 176 104 160 177 108 162 178 111 164 180 113 165 181 115 164 184 115 164 184 115 164 184 114 163 185 113 163 185 113 162 187 114 161 187 117 162 187 121 162 187 121 162 187 121 161 186 118 160 186 114 159 185 111 157 184 109 155 183 105 156 184 106 157 186 108 158 187 109 159 188 110 156 187 108 153 185 102 151 183 96 150 183 96 153 185 100 157 188 107 160 189 114 164 190 122 186 200 149 212 207 169 216 196 160 209 183 146 200 164 116 176 129 79 143 104 67 187 164 132 177 153 117 169 144 108 158 131 94 155 132 101 104 84 63 61 56 54 62 57 51 95 83 67 146 120 91 203 173 135 220 192 155 236 213 183 231 210 181 228 208 181 174 159 140 158 149 138 174 172 162 163 179 135 158 188 105 155 187 102 156 188 103 157 188 107 157 188 109 159 189 112 160 188 113 159 187 112 158 186 111 158 186 113 159 186 115 159 186 119 158 186 116 155 185 111 152 183 105 149 183 100 147 181 96 146 180 94 146 180 94 147 181 95 148 182 96 148 182 97 147 180 98 146 180 98 144 178 95 145 179 95 146 180 94 145 179 93 145 179 93 144 178 92 145 179 92 147 179 94 148 180 96 148 180 95 148 180 94 146 179 87 144 177 85 142 175 85 142 175 86 
164 176 107 162 175 102 163 175 101 164 174 101 164 176 105 165 178 109 165 179 112 166 181 114 165 184 116 164 183 113 163 183 112 162 183 111 161 183 112 163 186 118 163 186 119 164 186 121 166 188 124 164 188 123 161 186 120 159 184 115 156 184 107 153 184 100 151 184 96 152 184 99 156 186 107 159 188 115 160 188 117 159 187 113 156 185 108 154 183 104 152 183 101 154 185 104 158 187 109 160 189 114 164 190 121 194 201 154 210 199 160 203 177 141 194 163 122 168 120 72 141 98 59 127 94 64 164 139 107 171 146 111 151 124 84 135 105 67 125 94 60 123 100 71 148 129 103 165 144 119 176 155 129 186 161 130 190 159 120 197 166 128 204 175 141 196 168 134 152 134 109 61 59 53 38 38 34 41 42 38 48 50 42 155 176 112 155 187 103 156 188 104 156 188 104 156 188 106 157 188 109 157 188 108 156 186 107 154 185 105 154 185 107 154 185 110 155 182 113 155 183 113 154 184 109 151 183 106 149 182 103 148 181 100 148 182 98 148 182 97 148 182 96 147 181 95 148 181 98 149 180 102 147 179 102 147 178 100 147 178 100 147 178 100 146 177 97 147 178 102 146 178 99 147 178 99 148 179 100 147 179 99 146 179 95 145 180 90 143 178 84 141 176 82 139 174 81 138 173 83 
167 177 105 165 175 100 165 175 98 165 175 98 165 176 102 167 178 109 168 180 111 168 182 114 166 181 113 165 180 111 164 180 109 162 180 108 161 181 110 163 184 116 163 185 118 166 187 122 169 187 126 168 188 125 163 185 120 158 184 113 154 183 104 151 182 97 150 183 94 152 184 99 158 186 109 161 188 118 161 188 119 160 186 116 158 185 112 157 184 108 156 184 105 157 185 108 159 187 111 160 188 113 163 189 118 193 198 151 203 182 146 180 146 106 174 136 88 140 94 49 111 77 46 124 98 70 165 140 106 143 115 77 129 99 63 138 113 79 143 121 88 144 126 98 141 127 104 150 136 116 205 188 168 186 158 122 168 133 94 177 147 111 187 158 124 161 133 99 89 78 64 24 23 20 11 11 8 16 17 12 35 36 30 196 194 169 160 185 111 155 185 102 155 187 104 155 187 104 156 189 106 155 188 104 153 186 101 152 185 100 152 184 103 153 185 107 153 183 109 153 183 111 153 183 108 152 182 106 151 181 104 150 181 102 149 181 100 150 182 99 149 183 97 148 182 96 149 182 98 149 180 101 149 179 104 149 179 105 148 178 104 148 178 104 146 177 101 147 177 103 147 177 104 147 177 104 148 178 105 148 178 102 146 178 95 144 178 90 142 177 84 140 175 82 137 172 81 137 172 83 
171 177 105 167 175 98 167 174 96 166 175 96 166 176 99 167 178 106 168 180 110 168 181 112 168 181 112 167 180 110 166 180 109 163 181 108 162 181 109 163 183 114 164 184 118 168 187 123 171 187 124 167 185 118 162 183 115 158 183 111 153 182 102 151 182 96 151 183 96 154 185 101 160 187 111 164 189 121 163 188 122 162 187 120 161 186 116 158 185 111 158 185 108 159 186 110 160 188 113 160 188 113 163 189 116 193 191 142 186 156 116 157 120 78 157 118 74 110 69 36 80 52 29 145 122 89 146 120 82 140 115 77 151 129 94 167 147 114 172 150 116 170 149 118 185 171 148 217 202 179 199 176 145 162 130 93 168 137 102 164 138 104 155 129 97 148 124 94 136 122 104 54 52 48 25 25 22 16 17 12 31 32 26 209 206 192 184 198 142 161 189 115 155 186 107 154 186 102 155 188 103 154 188 103 152 187 98 151 186 97 152 186 100 152 185 102 152 184 105 152 184 109 153 184 109 155 183 108 155 182 106 152 181 105 150 181 101 150 182 100 149 183 97 149 182 96 150 183 97 150 182 101 150 181 106 150 180 106 149 180 104 148 179 104 146 177 101 147 177 101 147 177 105 148 178 105 148 178 105 148 178 103 145 177 96 143 177 90 140 175 84 139 174 83 138 173 83 137 171 85 
173 176 107 169 175 100 167 174 96 165 174 95 165 175 96 166 178 100 166 181 106 165 181 109 165 182 109 167 181 109 167 180 108 165 179 107 162 180 108 162 183 111 165 184 115 169 185 121 170 185 120 167 183 113 162 182 112 159 181 110 154 181 104 152 182 97 154 183 98 156 185 102 161 187 111 163 189 119 163 188 121 162 187 119 160 186 114 158 184 109 158 185 109 160 187 112 160 188 114 163 188 115 167 189 118 192 182 134 167 132 90 142 107 69 145 104 62 90 56 29 100 76 54 150 128 92 139 115 78 150 127 92 159 139 106 171 149 115 178 156 123 190 170 138 193 176 146 176 155 118 156 127 89 159 129 93 155 127 93 138 115 86 126 106 79 118 97 72 109 94 75 64 57 47 36 36 30 35 36 30 69 69 61 190 183 165 205 208 168 171 193 128 161 188 117 155 187 103 153 187 101 154 188 101 153 187 98 151 186 95 151 186 96 150 184 96 149 183 97 152 183 104 155 183 108 156 183 110 157 183 110 156 182 107 152 180 101 151 182 99 150 182 97 149 181 96 150 183 97 151 183 98 151 182 104 150 181 105 149 180 102 148 179 102 146 177 100 147 178 100 147 177 104 147 177 104 148 178 105 147 177 102 145 177 93 144 176 90 140 174 86 136 172 84 139 171 85 138 170 88 
168 177 104 164 175 99 161 174 95 159 175 93 159 176 94 160 178 96 161 180 100 160 180 103 162 180 105 163 179 105 164 179 105 162 178 104 158 178 103 158 179 106 160 181 109 164 183 112 166 182 113 166 182 111 161 181 110 158 180 108 154 181 106 153 182 100 155 184 100 157 186 101 161 188 108 162 188 115 161 187 115 158 185 112 156 184 108 156 183 105 158 184 108 160 186 112 161 187 112 164 188 114 167 189 115 175 160 108 140 103 67 152 115 78 127 83 44 81 51 28 105 85 61 136 113 78 140 117 81 150 128 93 158 137 100 166 146 112 188 168 135 179 158 125 165 143 105 151 128 89 145 122 84 152 130 95 153 132 102 136 120 95 120 105 82 107 91 71 93 79 63 63 53 43 51 45 35 51 47 38 76 71 60 172 162 141 212 208 172 160 187 111 162 190 117 158 189 110 154 188 101 153 187 98 151 186 92 151 186 91 150 185 92 150 185 93 149 183 94 151 182 101 155 182 108 157 183 110 159 183 111 158 182 107 154 181 102 152 180 100 149 181 97 149 181 95 150 183 94 150 183 94 150 182 97 150 182 98 148 180 95 147 179 95 145 178 94 144 178 93 146 178 99 147 178 101 147 178 101 146 177 98 145 177 92 143 175 91 140 173 87 135 170 86 137 168 88 137 168 90 
160 175 97 154 173 96 152 172 92 150 173 92 149 174 92 151 176 92 153 177 94 153 178 95 156 179 98 157 178 100 158 178 103 157 179 102 152 177 100 151 177 101 154 179 103 158 180 105 161 179 107 163 181 109 158 179 106 155 178 104 154 181 104 154 183 101 155 185 99 157 187 101 159 189 105 159 187 109 157 185 109 153 183 107 151 182 101 152 182 101 156 184 106 158 185 110 160 186 110 163 186 110 167 184 111 158 127 82 124 89 57 156 118 79 122 80 44 81 56 33 115 96 70 134 113 78 138 116 79 144 121 82 146 123 82 165 145 107 165 146 109 148 129 90 136 114 75 122 104 67 123 107 72 132 118 87 134 120 93 122 108 82 112 98 73 97 84 63 82 69 52 60 52 38 69 57 40 27 19 10 43 36 24 147 133 103 202 188 139 165 189 121 156 186 104 157 187 110 155 188 101 153 187 96 150 185 89 149 185 89 150 185 90 150 183 89 151 182 91 155 182 100 156 183 108 159 184 110 161 183 111 158 182 106 156 181 104 154 180 102 150 180 101 149 181 97 149 182 94 150 183 93 150 183 95 149 181 95 145 179 90 144 178 90 143 177 90 142 176 90 144 177 93 145 175 97 146 176 100 146 176 100 145 176 95 143 175 93 140 172 90 136 169 89 135 167 88 134 165 87 
152 173 98 145 171 94 140 169 88 140 170 84 138 171 78 137 171 75 138 173 76 141 175 79 144 174 84 147 175 89 149 175 96 148 176 96 144 174 90 143 175 89 147 177 94 151 178 99 154 177 102 155 178 105 153 177 100 151 177 97 151 180 97 153 182 96 154 184 93 157 187 98 158 188 104 156 187 104 156 185 104 156 182 102 154 182 98 151 182 98 153 184 103 155 185 104 157 185 107 159 186 107 165 182 108 148 116 74 132 97 64 156 118 76 111 76 41 82 59 37 114 96 69 129 109 74 133 111 74 136 113 73 135 112 70 145 126 86 143 125 86 117 101 67 55 45 26 59 51 35 80 70 50 105 91 67 116 101 75 109 95 68 100 87 61 78 67 47 52 40 27 26 21 13 102 86 57 163 146 114 118 92 58 144 108 65 191 172 116 158 182 108 156 186 108 158 187 111 157 187 104 154 187 98 151 185 91 151 183 91 152 182 91 159 182 87 168 183 85 173 184 91 171 185 96 167 184 108 163 184 113 160 183 110 159 182 109 157 181 107 154 179 107 153 178 104 155 180 100 156 181 98 152 180 97 147 179 94 142 178 90 142 177 88 143 177 91 141 175 89 140 173 89 142 171 95 153 173 101 160 177 99 158 176 98 145 174 98 141 171 95 137 168 91 134 165 87 133 164 86 
154 172 95 150 168 86 143 166 82 137 167 78 130 168 70 126 165 63 127 165 63 129 167 65 131 168 70 135 170 75 139 170 84 142 170 88 140 170 86 139 172 86 143 176 90 146 178 94 149 177 97 149 177 99 148 176 94 147 177 90 147 179 90 149 180 90 152 183 91 155 185 97 155 187 102 161 185 103 172 182 95 179 178 86 175 179 85 165 181 94 155 183 101 151 185 99 154 184 101 158 185 105 166 173 103 141 107 69 134 99 65 148 110 68 112 79 45 75 54 31 103 86 59 123 103 69 130 108 71 133 112 71 135 114 72 144 129 88 131 118 79 68 58 38 17 16 12 15 14 10 36 29 25 46 32 25 66 48 37 64 47 36 51 36 27 35 24 17 43 29 24 67 48 43 148 132 100 174 153 124 107 67 35 120 78 39 187 163 101 156 181 106 158 185 112 159 187 112 159 186 111 158 185 106 155 183 99 155 182 98 157 181 95 175 183 87 190 185 89 194 185 94 192 185 97 180 186 107 167 185 115 164 184 116 163 184 116 161 182 114 159 181 111 165 179 107 170 178 94 176 178 91 173 178 87 162 176 88 152 175 92 147 176 94 147 174 96 141 172 92 143 169 91 153 171 92 175 172 90 184 173 87 177 174 90 156 174 99 142 172 101 136 167 92 134 164 88 137 163 87 
166 168 86 166 165 79 159 164 76 149 166 77 133 165 74 125 162 66 124 161 65 125 161 67 128 162 68 132 166 72 138 166 82 142 167 89 142 167 90 140 171 89 143 175 92 149 178 95 156 178 96 158 177 92 153 176 89 148 177 88 149 176 89 149 178 92 155 180 97 160 183 100 163 184 102 180 182 94 196 176 85 201 173 78 195 174 78 182 178 85 167 182 98 157 183 101 156 184 102 165 184 99 169 152 91 133 99 63 133 100 67 143 107 64 114 83 50 81 60 34 107 91 62 127 109 74 132 113 76 132 112 72 132 115 72 136 121 79 132 118 80 62 52 35 20 18 14 24 22 17 57 47 45 50 36 34 61 40 37 78 54 52 80 58 57 66 50 51 68 52 52 85 66 65 163 146 133 157 130 97 118 75 41 138 99 54 185 162 96 165 183 106 173 184 111 181 186 111 184 188 111 181 186 106 176 183 99 172 183 99 166 181 97 186 184 94 199 184 97 199 185 97 197 188 105 186 186 107 171 185 114 167 184 120 166 184 120 165 183 118 168 182 115 178 181 107 188 177 98 197 177 90 200 177 87 189 177 84 181 178 89 170 178 96 159 175 99 156 173 96 167 171 87 183 170 78 204 172 79 206 170 83 196 170 86 171 172 97 146 171 103 140 166 97 145 165 86 161 163 77 
185 161 79 185 163 77 176 166 78 165 169 82 148 166 83 139 163 85 135 161 81 138 161 80 142 163 79 148 165 77 157 164 81 165 165 84 160 165 87 152 169 94 155 174 96 177 178 89 194 178 85 201 178 81 196 176 79 187 178 83 173 180 88 171 180 91 186 181 96 195 184 98 197 182 95 207 175 87 218 173 83 225 176 81 223 178 82 214 178 84 198 182 91 183 185 99 183 185 99 194 185 97 162 130 73 126 91 55 128 95 61 139 104 63 112 80 48 81 59 32 102 84 55 122 103 70 129 111 75 129 109 69 120 100 59 119 101 60 126 108 69 104 89 60 48 41 28 29 26 23 36 29 28 79 70 68 76 63 58 81 59 57 106 78 81 98 75 81 102 83 87 111 90 96 161 139 149 182 152 112 184 142 86 209 176 112 195 176 99 190 184 106 199 185 108 207 187 109 213 189 113 211 187 108 204 183 100 201 183 98 196 184 99 208 184 101 214 188 104 212 189 104 205 189 107 194 187 108 180 184 110 179 184 113 178 184 115 177 185 116 181 184 113 197 182 109 205 180 103 214 181 99 219 182 95 214 179 88 207 179 89 195 178 93 182 177 98 178 176 95 193 173 83 208 172 73 225 174 73 226 173 80 216 170 85 188 170 91 156 169 100 150 167 100 163 165 82 182 162 74 
203 158 74 202 164 76 192 171 85 182 174 94 168 175 96 160 172 96 165 170 87 181 171 83 191 170 77 199 170 75 206 169 80 205 171 85 198 173 88 190 176 93 195 177 91 209 180 89 219 180 85 225 179 82 221 179 85 210 181 91 199 182 92 206 181 92 219 184 95 224 184 96 226 183 94 231 180 85 239 176 79 244 178 79 245 181 87 238 182 93 229 184 99 219 188 103 213 185 98 221 187 99 173 136 76 125 89 53 123 90 56 135 100 62 109 76 45 84 61 33 86 67 38 101 82 50 117 98 64 120 101 62 115 93 53 115 94 54 120 101 61 129 109 72 108 92 61 68 55 39 33 28 23 26 22 19 31 26 23 42 34 31 86 64 66 112 77 84 136 108 114 138 104 116 152 121 135 190 161 161 214 184 131 211 182 105 205 184 105 201 183 106 212 186 106 220 188 108 223 189 111 223 188 106 224 185 101 227 182 96 230 182 99 233 188 109 237 191 114 233 192 116 222 189 112 212 184 108 205 177 103 206 176 104 207 180 105 209 185 108 214 187 106 222 189 109 225 190 108 225 187 103 229 183 93 226 179 84 218 174 81 211 175 86 205 176 94 205 175 92 214 173 82 223 172 74 232 172 70 235 173 73 228 170 80 202 168 90 171 168 95 162 165 95 182 163 84 202 162 80 
211 159 76 212 166 81 205 176 98 196 180 105 187 182 109 191 182 106 206 181 97 218 181 93 225 178 83 232 174 78 236 175 81 234 180 89 225 182 93 219 183 94 221 181 91 229 181 90 239 181 83 243 180 82 237 182 92 227 184 98 223 185 97 229 183 93 240 183 91 244 184 87 246 187 86 245 185 82 247 181 79 249 178 79 249 181 88 247 186 98 243 186 102 238 188 106 230 186 103 233 189 103 199 158 85 142 103 56 109 75 43 133 97 61 106 75 43 94 70 39 84 63 33 94 74 44 105 87 55 119 102 67 124 104 65 119 98 58 117 95 56 129 107 67 127 108 72 115 98 65 98 80 54 65 51 37 41 35 26 28 27 22 28 26 22 40 31 28 95 72 70 127 84 94 157 119 132 174 142 153 201 167 113 210 182 105 201 184 109 203 184 106 216 187 105 225 189 109 226 189 109 231 185 100 240 183 96 246 180 91 250 180 92 249 186 102 246 188 109 241 189 116 227 185 112 218 179 104 216 170 92 219 169 90 222 176 94 224 181 99 233 189 104 238 193 106 236 193 108 229 188 103 229 182 93 228 173 81 222 165 72 225 173 77 225 177 86 222 173 83 226 172 80 229 172 76 230 170 72 232 168 74 227 166 80 209 165 91 191 164 97 183 161 93 201 161 87 219 166 87 
216 164 82 220 172 85 216 181 104 210 184 113 209 187 117 218 187 111 232 186 100 240 182 90 247 180 84 251 181 84 249 181 84 246 184 90 237 185 92 232 184 92 234 179 88 241 176 85 244 175 79 243 175 84 238 178 93 234 183 98 233 182 95 239 177 84 247 178 82 249 182 80 248 185 82 247 187 81 247 185 80 244 183 83 242 181 91 244 181 99 243 182 102 237 183 103 233 184 106 235 187 108 224 177 99 188 142 71 141 99 47 132 96 54 105 74 43 91 65 36 87 66 36 87 67 38 97 79 47 114 98 65 124 107 72 125 106 69 120 98 59 120 97 56 124 103 62 126 107 68 121 101 64 108 88 56 103 82 53 57 49 38 30 27 23 30 26 23 35 31 28 35 29 25 50 41 36 75 69 61 184 170 126 201 183 111 198 186 115 200 184 112 206 185 107 213 185 103 217 186 108 228 187 102 243 184 95 253 179 85 254 176 84 254 182 93 249 185 103 237 185 112 223 181 111 214 174 101 213 167 91 216 165 86 222 171 90 227 175 92 238 183 92 243 187 92 236 188 99 222 183 98 218 178 92 219 168 80 222 162 76 233 169 76 238 172 75 232 167 72 226 164 73 220 166 78 217 166 81 219 165 80 218 164 83 211 163 89 197 161 91 195 160 92 210 163 85 222 164 86 
215 168 88 221 174 85 221 184 102 222 187 116 228 189 118 235 187 106 243 185 96 248 183 90 250 180 86 251 177 85 250 178 90 242 182 93 233 183 94 234 180 93 237 174 88 239 171 86 235 170 87 229 172 91 226 176 94 227 180 100 232 180 96 241 174 83 248 171 78 247 174 79 243 182 85 240 186 89 234 183 90 227 182 95 225 178 99 225 176 101 225 174 101 222 172 99 219 171 102 222 177 106 230 181 108 225 173 95 209 156 76 170 125 63 107 74 40 92 66 35 106 84 50 104 84 52 99 80 47 109 92 60 121 106 74 124 108 74 123 104 67 118 96 56 111 91 50 116 94 53 122 99 58 116 94 55 119 96 60 99 83 58 72 61 46 68 61 49 67 62 49 68 62 49 79 73 55 136 127 105 204 193 155 197 187 123 194 184 114 192 185 112 196 185 113 204 185 109 212 188 113 227 190 108 242 187 99 252 182 92 250 175 89 241 176 91 228 179 98 213 181 108 198 179 108 192 174 103 196 169 96 198 168 95 204 168 97 213 169 93 222 170 82 229 174 81 221 178 89 207 175 90 204 174 88 205 167 82 212 163 80 226 166 76 234 166 71 226 157 66 215 155 71 207 164 83 204 166 86 208 162 80 211 163 82 211 165 88 211 166 87 214 167 83 223 170 83 225 168 82 
205 170 89 214 171 83 220 178 93 227 182 104 236 184 102 243 183 94 246 181 86 245 177 85 246 174 87 247 172 88 246 171 91 233 172 93 221 171 94 223 170 95 228 165 92 227 163 88 222 165 89 222 170 92 221 174 91 226 178 94 237 181 93 245 178 89 247 174 82 239 173 82 229 177 93 229 183 103 226 184 108 221 182 109 216 176 105 211 172 101 205 167 101 200 162 99 196 163 101 201 166 103 217 170 104 229 174 101 232 175 104 205 178 135 109 79 43 117 91 58 119 97 57 107 86 48 106 87 51 110 93 61 126 110 80 128 113 80 129 113 79 132 113 77 129 111 73 122 102 61 119 96 54 118 94 49 119 95 51 122 98 56 118 95 57 113 91 55 110 90 55 119 100 63 138 120 78 189 173 134 198 187 129 196 186 123 194 185 115 192 184 112 199 186 112 214 187 112 224 190 115 234 191 110 244 188 105 249 181 101 245 175 101 236 178 101 219 182 104 204 183 107 187 181 108 182 181 110 184 178 106 189 178 107 190 173 104 195 169 95 200 164 82 207 166 75 205 170 84 196 172 87 193 172 85 199 168 86 202 165 83 209 162 76 210 157 72 199 147 66 193 150 71 191 161 80 199 159 80 206 154 72 207 161 78 206 167 83 218 168 79 225 171 77 230 169 73 225 164 72 
189 166 84 196 167 81 204 171 85 217 174 91 232 176 89 242 179 84 243 176 78 239 171 82 239 169 89 240 170 92 238 167 89 224 165 88 212 166 95 209 166 100 214 164 100 211 162 96 210 165 92 218 166 85 225 168 84 228 173 85 238 178 89 245 179 87 245 177 82 234 177 88 226 180 105 230 180 118 229 181 119 226 179 112 218 172 101 209 168 100 198 165 101 185 163 99 183 161 95 188 160 95 203 162 95 216 167 100 224 193 150 218 206 184 137 107 69 157 136 100 139 117 77 120 100 59 116 97 62 114 98 66 127 112 81 129 114 82 134 119 86 140 125 91 140 126 90 136 119 79 131 111 67 125 102 59 127 103 61 133 108 66 147 124 81 162 144 106 179 162 126 189 173 138 213 199 166 232 219 196 213 203 164 194 186 123 195 183 114 196 184 114 209 186 111 227 187 109 240 188 110 246 187 106 246 184 103 246 177 106 243 173 104 240 173 98 232 175 95 222 178 98 211 181 104 205 181 110 198 180 107 195 177 104 195 175 101 198 169 97 194 162 87 193 164 76 199 169 78 205 170 81 210 168 81 210 162 78 203 158 74 188 154 73 174 154 71 164 153 72 166 155 74 173 158 76 188 149 68 202 140 61 201 151 69 199 162 78 212 158 71 219 158 66 227 158 64 221 151 63 
174 166 94 177 166 92 184 167 92 198 166 88 218 166 83 230 170 81 230 169 80 224 166 83 227 163 85 230 162 87 228 160 83 216 160 84 204 165 97 200 167 103 203 167 103 201 163 97 205 164 93 211 159 80 224 160 76 230 164 83 234 169 87 239 173 84 236 175 78 226 173 85 226 178 105 229 177 118 229 176 117 222 171 103 213 166 94 205 165 97 194 168 98 187 170 101 183 167 97 183 163 91 191 165 93 202 176 120 224 210 187 199 186 164 168 150 120 165 149 120 151 132 99 134 114 80 133 115 82 123 106 76 122 105 78 124 108 80 125 110 79 132 117 84 133 117 82 135 118 80 133 114 73 122 100 60 129 107 69 132 110 75 151 132 98 165 149 121 197 182 161 199 184 158 222 208 182 237 225 202 229 215 186 199 185 124 203 180 112 205 182 113 211 185 111 227 184 109 239 182 104 242 180 102 237 175 101 235 172 104 240 169 101 242 164 84 246 157 68 243 160 73 235 168 86 225 174 97 217 177 100 209 174 95 205 170 98 205 163 97 201 160 93 200 162 82 212 167 75 224 163 71 231 158 68 225 151 66 203 141 61 178 144 67 153 153 73 143 156 76 146 156 74 156 156 71 175 142 62 188 134 62 183 145 70 182 150 70 196 144 62 204 140 58 205 137 61 201 134 68 
168 165 100 175 166 101 181 166 101 184 165 95 196 164 88 212 164 85 216 160 80 212 156 81 212 158 86 212 162 88 207 157 84 196 156 82 186 161 88 189 166 96 191 165 98 190 163 95 196 162 90 199 158 83 203 156 82 206 156 85 212 158 88 216 158 84 213 160 80 205 166 87 208 170 101 219 168 107 225 166 101 211 161 88 198 161 86 192 163 92 189 168 96 190 170 99 189 169 97 183 168 96 180 172 105 203 192 149 208 196 174 185 173 150 174 163 141 166 152 126 151 134 101 138 119 87 133 116 84 128 111 82 120 103 78 125 108 84 123 108 81 116 101 70 114 97 67 126 108 74 130 111 75 118 95 60 131 108 73 145 122 90 154 135 103 169 152 126 186 170 147 189 173 145 215 198 171 229 212 182 231 216 187 208 190 139 210 173 111 210 171 107 206 173 107 207 175 111 213 171 105 212 171 105 209 170 103 212 172 104 224 169 96 238 154 75 241 138 56 244 136 56 242 149 68 238 160 77 233 167 80 222 166 78 213 162 83 214 158 90 213 158 92 211 158 81 219 157 69 227 151 59 228 142 56 216 132 53 197 126 54 173 131 62 155 149 74 146 155 82 146 155 79 150 151 73 161 144 68 167 143 72 171 150 77 183 145 70 199 133 55 203 128 52 201 130 60 197 135 72 
179 160 98 191 165 106 191 167 109 186 165 104 189 161 95 202 159 90 202 154 83 197 151 83 198 157 90 197 162 91 185 156 83 173 152 79 165 155 86 174 162 93 185 162 95 197 163 93 207 162 87 200 162 84 184 160 88 179 158 92 185 154 91 184 148 84 182 149 82 180 160 88 187 160 91 198 154 86 205 151 76 201 154 76 193 160 82 190 167 91 191 172 97 192 171 97 193 172 100 191 173 102 187 178 113 211 201 170 192 180 156 180 168 146 175 163 140 167 153 128 153 138 106 146 128 96 141 124 93 135 118 90 131 113 89 132 116 92 131 115 88 127 111 82 122 105 78 129 111 82 125 105 74 128 106 74 133 111 78 146 124 93 159 139 110 165 148 123 177 160 140 186 169 143 219 202 176 229 214 189 240 230 214 237 227 209 218 178 123 212 164 102 204 166 108 192 171 118 184 170 110 177 164 102 180 163 98 194 169 103 210 165 98 219 152 81 222 139 67 231 138 65 235 146 68 237 154 72 236 162 73 226 162 72 214 160 77 214 157 81 220 158 82 219 160 79 214 155 69 205 145 64 198 139 65 190 138 65 178 130 62 172 132 68 165 147 80 156 154 90 156 153 85 159 148 75 161 147 74 161 151 80 180 155 86 203 152 83 214 139 70 211 126 56 208 126 56 210 134 61 
195 154 83 202 156 93 203 163 103 201 163 101 198 160 91 204 156 86 197 154 85 185 154 91 185 160 97 183 164 96 172 155 84 163 147 78 158 154 87 170 161 94 188 164 95 206 165 95 219 169 87 210 168 84 175 166 85 154 162 88 161 153 80 168 146 77 162 149 81 157 156 86 161 154 84 180 151 82 198 152 79 209 157 77 212 168 79 211 178 86 215 181 95 217 182 102 218 183 102 218 184 105 211 184 112 211 197 167 184 170 143 176 162 136 172 159 133 167 154 128 156 140 111 144 127 97 143 125 94 141 124 96 136 119 93 138 122 97 130 114 90 129 111 88 126 110 85 129 111 86 126 106 80 131 112 81 144 127 96 148 131 105 144 127 102 157 139 116 171 154 133 184 167 140 221 204 177 234 221 199 243 236 221 244 234 220 231 188 131 219 166 98 206 164 113 190 165 118 177 166 113 165 159 101 169 159 94 189 165 99 199 163 99 202 154 86 209 152 84 219 153 79 224 156 80 226 159 84 225 162 83 221 163 79 215 162 76 218 157 72 223 152 69 217 152 68 204 157 74 191 154 80 185 152 83 185 150 84 176 143 78 171 141 75 168 150 83 168 159 90 181 158 80 187 153 69 183 150 66 179 149 71 201 153 89 224 159 102 219 149 95 205 130 67 209 128 50 220 138 52 
214 129 46 214 136 63 215 152 77 213 160 80 211 159 75 209 159 73 196 160 81 175 162 95 168 165 100 169 166 98 164 161 89 167 156 83 170 163 88 175 169 98 190 172 101 203 173 101 210 172 92 200 170 85 171 170 86 150 166 93 149 158 85 155 153 78 155 159 85 151 162 88 156 161 91 175 158 92 193 158 88 213 161 79 230 169 71 238 182 77 240 185 83 241 186 89 237 186 93 237 189 99 228 190 117 206 191 163 179 165 137 174 160 133 171 157 130 170 155 129 157 142 113 147 130 100 146 128 97 143 126 98 142 125 99 139 122 98 138 123 99 135 121 97 133 117 95 128 112 88 128 110 85 137 120 92 150 134 108 151 135 111 134 116 94 148 128 105 173 154 128 179 156 127 207 183 157 232 218 199 246 237 223 247 239 225 235 201 157 221 170 96 207 166 107 197 167 119 193 167 113 185 164 102 186 162 97 193 166 100 192 162 98 188 156 91 194 157 89 202 154 84 209 153 85 207 154 86 205 157 87 205 159 82 208 158 76 214 147 64 219 137 59 217 145 66 214 163 78 218 169 85 222 163 87 216 157 90 194 151 90 181 147 88 183 155 89 191 162 76 205 163 62 211 156 53 208 146 50 204 138 52 216 143 72 230 156 106 220 157 111 195 138 74 202 128 49 216 136 48 
209 83 24 209 95 34 220 126 48 219 140 50 215 141 48 214 147 52 198 158 68 168 163 88 158 165 94 161 165 91 167 162 86 183 162 83 190 167 81 192 168 81 195 170 84 187 171 91 183 172 90 180 173 87 165 171 88 157 170 95 158 168 92 165 166 90 167 167 90 162 169 94 163 169 97 170 165 94 188 164 92 210 160 80 234 164 73 242 174 75 245 179 75 246 176 73 236 176 83 226 183 99 226 196 142 199 187 162 174 159 130 166 149 116 166 150 116 163 146 114 155 138 107 146 128 97 140 122 91 140 123 96 143 126 101 142 125 100 138 122 97 139 124 99 130 114 92 127 111 88 131 115 90 143 127 102 151 135 112 133 116 93 134 115 91 144 123 98 157 135 110 183 159 133 198 175 150 231 213 193 245 234 215 248 238 222 244 232 215 224 194 141 207 170 101 213 172 102 220 173 100 214 167 95 207 161 90 206 163 94 201 162 97 200 160 94 208 157 91 212 156 93 202 152 91 191 150 88 180 152 87 178 154 82 192 155 77 205 145 65 215 138 60 208 144 67 217 167 83 235 174 87 244 166 86 233 155 91 210 147 92 203 149 93 205 158 86 211 162 63 218 156 45 217 143 40 216 128 40 214 130 43 212 134 55 219 144 92 208 148 100 189 137 73 199 125 51 209 127 54 
186 76 28 188 90 36 201 115 49 197 123 51 194 122 49 195 132 52 182 148 60 160 158 80 147 158 92 154 161 84 165 158 80 180 159 81 188 157 71 196 155 65 194 154 67 175 158 79 154 164 81 155 166 81 155 165 84 160 169 92 169 171 96 171 166 92 171 166 90 170 171 94 168 170 95 170 167 93 182 161 87 196 156 82 219 160 85 231 169 89 236 171 82 234 164 74 225 166 83 219 181 114 226 209 174 193 181 157 172 156 126 166 146 112 163 144 109 157 137 101 156 137 103 151 132 99 147 129 98 138 120 94 144 125 101 151 134 109 144 128 105 141 126 104 133 116 94 127 110 90 135 118 97 146 130 107 153 137 115 118 101 77 137 117 93 153 131 108 155 130 107 189 166 142 217 195 171 231 214 192 241 228 208 244 234 216 245 236 219 226 207 167 216 177 105 225 168 89 235 163 78 227 153 68 216 144 66 214 148 75 213 156 85 222 164 93 230 167 101 225 166 104 210 163 102 191 159 97 176 159 94 170 160 88 190 155 78 209 152 67 213 149 66 193 148 72 192 158 80 212 163 82 226 155 80 218 149 82 203 143 84 205 145 88 213 156 76 220 157 53 217 147 43 212 132 39 213 119 41 206 123 46 198 125 52 202 131 75 200 139 87 193 134 72 205 127 54 201 125 58 
153 101 50 153 113 54 164 131 66 157 135 69 152 135 67 157 140 71 148 145 73 143 150 82 138 152 88 142 153 82 155 150 73 158 149 75 163 143 67 183 138 61 184 140 64 162 144 74 146 152 79 145 156 79 163 159 83 190 173 99 188 173 99 160 159 84 152 157 83 158 163 88 160 163 91 158 160 87 163 159 82 168 152 77 181 149 85 196 154 91 200 155 86 209 159 81 221 173 98 229 197 147 232 221 201 189 176 152 173 158 128 165 149 115 165 148 114 158 141 107 154 135 102 150 131 98 146 127 96 150 130 105 148 128 103 152 135 110 156 140 116 148 132 109 130 113 91 125 108 91 138 121 103 151 134 114 153 136 116 121 104 81 134 113 91 145 123 103 160 138 114 195 175 150 212 192 167 226 209 185 230 218 195 239 230 211 244 237 219 235 215 183 213 169 93 210 149 71 218 141 57 213 131 51 199 129 53 197 140 64 209 156 75 218 166 90 222 170 97 215 167 98 200 164 95 188 163 94 183 163 94 181 162 90 197 149 78 210 143 67 195 147 69 163 143 73 153 146 78 168 145 81 183 144 77 176 147 76 169 146 79 174 144 81 196 147 73 221 143 57 218 143 53 212 136 50 217 131 50 209 130 53 186 119 54 185 122 61 188 132 71 201 140 66 221 147 54 214 141 54 
134 131 70 130 133 67 138 142 78 138 144 79 138 141 71 140 146 81 131 145 81 130 144 78 130 145 79 131 146 80 138 144 72 137 144 73 143 132 65 168 131 64 179 134 64 169 137 67 165 142 75 167 147 83 190 157 90 209 175 105 198 170 99 154 151 80 139 150 87 142 154 91 152 150 84 151 151 82 142 153 83 140 150 77 154 145 79 163 140 82 159 141 82 177 156 85 212 174 106 231 206 171 221 210 187 183 171 145 172 158 128 167 152 120 163 148 116 158 143 113 155 139 108 149 131 100 145 126 95 146 125 97 147 126 98 149 128 101 151 130 103 150 129 101 148 128 102 144 127 105 145 128 108 157 141 120 158 142 119 126 107 83 136 116 93 148 128 104 166 144 118 186 165 137 201 181 156 210 193 168 226 213 193 237 227 208 244 236 219 236 214 179 211 161 80 186 143 70 193 140 67 201 141 62 194 144 65 194 147 67 208 149 63 209 155 72 203 160 81 190 158 84 179 154 79 181 151 78 186 154 80 185 154 79 188 146 75 182 140 71 160 146 76 141 149 85 139 150 90 149 148 91 151 148 85 148 155 84 147 156 88 149 148 85 174 142 77 209 138 64 224 147 61 227 147 60 230 154 63 220 151 58 185 130 57 166 130 65 166 136 70 190 145 63 221 154 52 223 141 47 
127 132 71 126 132 64 129 136 72 131 141 76 138 140 66 149 137 70 143 138 73 128 139 71 130 139 73 129 140 79 130 141 76 131 136 71 133 121 62 146 122 63 157 130 62 163 136 66 168 143 80 167 145 84 183 149 82 192 159 85 178 150 78 153 143 73 139 148 86 140 152 90 154 144 75 164 146 76 152 155 85 153 155 83 179 149 79 181 141 79 160 141 78 181 160 88 215 183 123 229 217 194 202 187 163 180 167 141 173 159 132 167 153 122 168 153 125 166 151 126 164 151 124 155 140 113 146 129 102 146 126 99 145 124 97 136 115 88 141 120 93 146 125 96 149 128 102 155 137 114 158 142 122 160 144 125 163 147 126 146 128 105 150 130 106 151 130 103 160 138 107 171 150 120 181 162 137 208 191 169 226 212 193 236 226 207 243 236 217 241 224 205 215 166 94 201 151 75 206 155 70 216 164 68 212 163 67 207 146 59 213 127 45 211 134 51 208 150 67 189 151 77 188 143 73 203 146 65 208 153 62 202 155 58 189 153 68 158 152 81 143 153 88 138 153 94 141 153 97 155 154 99 158 156 98 152 159 97 145 157 93 142 151 88 152 150 87 184 148 72 221 153 59 236 156 61 231 160 65 220 159 64 185 145 67 151 140 75 149 137 76 189 146 70 216 149 61 212 127 61 
148 132 62 163 130 55 153 135 61 135 140 73 132 140 68 144 134 63 142 130 67 127 133 69 133 138 78 134 141 84 125 136 72 126 133 68 126 124 65 132 127 69 137 140 74 140 147 78 148 152 93 145 152 93 154 152 85 156 157 81 155 153 77 146 150 80 140 155 95 143 157 97 161 146 74 180 148 78 175 156 89 162 158 92 181 155 80 195 150 79 179 147 80 189 162 99 224 203 170 222 212 193 187 172 146 181 167 141 176 164 138 172 158 130 172 158 130 168 154 126 164 149 123 159 143 117 153 136 110 153 134 108 144 125 100 137 117 90 135 114 87 139 118 90 144 124 98 157 140 117 160 144 124 161 145 126 170 155 136 157 141 118 152 133 109 146 123 95 151 128 98 163 142 113 184 167 142 206 190 169 226 212 192 233 222 203 242 234 216 241 231 214 223 175 117 230 164 83 236 166 62 243 169 54 234 170 58 214 154 55 187 132 55 184 135 60 190 144 66 179 146 72 186 146 66 221 160 60 237 166 60 232 159 54 219 157 63 182 156 79 151 159 94 138 156 96 142 153 96 156 155 96 172 162 107 165 164 107 149 160 96 143 156 90 150 156 93 159 153 79 186 148 66 201 148 63 198 149 63 196 148 70 180 147 79 152 144 83 156 142 81 202 149 77 224 155 80 216 133 83 
169 143 67 180 138 60 174 145 65 149 148 70 137 142 71 135 142 73 130 134 73 130 136 74 138 145 82 137 150 86 126 145 73 128 144 77 128 138 77 131 139 79 140 152 91 143 156 94 146 159 101 144 162 106 147 163 106 145 167 102 151 172 100 150 165 97 148 162 103 150 163 100 162 154 81 182 153 85 180 155 90 163 160 93 157 158 78 184 161 85 185 163 93 189 169 111 223 209 186 211 199 178 184 168 139 179 169 146 177 169 145 175 164 138 173 160 133 166 152 124 160 145 117 161 146 117 159 144 115 155 139 110 151 134 107 143 123 96 140 119 93 141 119 95 142 122 99 152 135 112 157 142 122 157 142 120 172 158 138 162 148 125 150 131 107 147 124 100 147 126 99 170 153 126 190 174 148 203 188 164 222 207 185 232 221 201 237 230 212 241 233 218 207 173 116 218 161 84 230 153 60 243 145 43 241 156 50 215 161 64 176 150 75 167 149 79 158 147 75 148 149 77 162 152 71 208 156 63 227 146 49 216 136 47 214 146 63 197 153 84 175 158 99 175 158 101 176 157 100 164 157 94 177 158 99 171 159 101 161 158 89 158 159 93 155 156 95 150 155 87 156 152 83 152 150 76 153 149 71 171 149 81 174 148 87 165 148 87 169 147 85 184 138 74 204 137 80 205 131 88 
183 151 71 165 147 78 157 152 86 145 156 78 146 152 74 141 157 91 145 152 84 147 151 80 151 150 76 161 158 85 161 165 76 154 161 85 148 158 94 146 156 94 147 161 99 144 158 96 146 160 100 150 165 109 156 172 121 152 174 114 169 178 106 171 174 95 166 167 91 165 169 95 160 169 103 169 167 106 170 164 101 157 162 96 149 159 87 165 164 91 174 171 104 192 184 142 215 202 180 199 185 160 174 158 128 179 170 148 180 174 151 177 168 142 172 161 134 164 151 124 159 144 115 155 140 110 153 138 108 152 137 106 147 131 100 137 117 87 140 119 91 139 118 92 143 123 100 150 133 110 150 135 114 157 141 118 168 155 130 166 151 130 149 132 109 149 129 105 152 133 107 174 158 132 188 173 147 202 187 163 211 196 174 218 207 186 234 225 210 238 231 215 184 172 118 173 162 91 193 152 81 223 139 58 239 149 63 232 164 77 230 175 87 223 180 86 176 161 80 143 152 86 157 157 92 181 151 83 186 135 64 171 140 63 181 157 82 189 158 103 189 158 108 201 156 101 195 156 102 174 158 97 176 153 94 167 151 89 163 154 87 160 156 94 151 153 93 144 150 88 144 149 87 143 151 87 145 152 86 157 152 89 169 150 90 186 153 86 178 152 87 156 137 76 161 135 81 175 138 90 
176 152 66 151 153 75 146 154 89 152 155 84 180 155 75 175 162 90 188 162 75 179 159 65 175 151 59 184 152 75 185 167 84 171 163 89 164 164 97 158 167 104 151 166 103 146 162 100 146 161 101 149 162 102 159 174 120 164 179 125 182 174 100 199 167 86 193 164 86 179 166 93 162 169 103 157 166 107 157 168 107 155 168 107 156 169 109 154 166 105 163 172 116 197 191 155 205 190 167 185 172 145 170 156 128 177 168 146 180 173 151 176 167 143 165 155 129 160 148 120 155 141 114 154 140 113 152 137 110 147 131 102 143 126 97 135 117 88 128 107 81 131 108 83 138 118 94 141 124 100 141 124 101 150 134 110 158 143 118 162 145 123 150 133 109 155 137 113 155 135 110 174 157 132 179 163 137 194 180 155 201 187 163 211 198 175 231 222 206 238 230 214 212 178 123 177 162 96 166 154 87 213 147 69 235 145 63 238 140 49 253 166 54 252 181 62 219 175 74 161 161 84 169 153 89 184 154 95 163 156 91 153 160 92 160 166 98 163 159 102 164 158 102 169 154 91 163 153 90 161 165 103 164 164 104 160 159 102 152 156 93 157 154 89 155 154 91 148 147 86 147 144 84 150 148 89 162 147 85 174 150 93 173 150 85 180 148 79 169 151 96 152 146 87 147 146 86 157 148 93 
152 157 85 131 151 70 142 152 82 147 152 86 165 145 71 178 155 80 187 157 69 169 150 63 179 142 50 179 142 54 157 153 77 145 151 81 155 160 95 158 167 107 157 168 110 152 162 104 154 159 102 160 163 103 166 173 117 163 178 121 185 158 83 203 146 66 199 150 73 187 160 85 170 167 100 148 164 102 148 167 104 142 162 95 147 164 97 152 164 102 172 167 104 199 184 152 186 170 140 173 158 128 166 153 124 176 166 143 176 168 146 174 165 139 164 154 126 156 145 116 157 147 119 158 148 120 151 140 112 149 136 108 153 140 113 146 132 105 138 121 95 129 108 83 131 110 86 138 119 95 136 118 94 145 129 104 152 137 112 140 119 95 133 110 86 137 115 89 141 120 92 161 143 116 180 165 139 188 174 148 197 182 157 217 203 178 227 217 197 241 231 217 228 172 116 199 143 78 177 141 74 192 139 71 185 136 75 200 133 66 232 134 53 226 139 51 227 166 71 187 170 99 185 148 90 209 147 81 198 154 79 167 164 88 165 174 108 158 167 108 151 160 101 155 157 100 161 157 104 164 168 115 168 173 116 170 170 115 187 169 106 210 170 95 203 172 98 180 161 91 163 151 90 157 147 85 163 142 75 174 149 94 156 149 81 152 144 75 159 147 94 156 146 89 153 148 91 156 148 92 
155 154 82 136 153 76 153 148 69 159 152 83 138 149 81 150 155 86 155 152 75 146 155 78 169 155 82 160 153 69 139 157 89 138 152 90 143 157 99 151 161 104 155 164 110 151 158 99 148 150 87 159 165 103 163 173 112 149 168 101 163 152 69 171 149 65 166 155 76 164 160 88 159 172 110 153 173 116 151 172 110 135 156 88 136 150 78 144 150 83 170 156 93 193 179 147 176 157 124 165 147 116 164 149 120 173 164 140 175 167 145 169 160 133 162 151 124 152 140 114 154 142 116 150 138 112 145 132 106 151 138 112 152 139 113 146 132 106 133 117 91 125 104 80 129 106 84 133 111 88 135 116 92 137 119 95 152 136 111 133 114 89 128 108 81 139 119 91 146 125 96 150 127 98 162 144 114 179 163 134 188 172 143 203 189 161 221 208 185 237 228 213 207 157 101 202 134 65 208 157 82 201 156 82 176 142 88 171 145 85 182 144 73 176 145 74 203 170 92 204 171 117 189 152 99 204 158 94 227 145 62 211 152 62 197 173 96 168 173 120 145 157 102 146 152 100 157 157 110 152 159 109 157 162 101 166 163 105 187 168 108 219 163 97 223 167 92 210 171 87 199 170 94 192 162 78 174 153 87 167 155 103 144 148 85 150 150 88 153 149 89 142 140 75 145 140 80 149 145 83 
152 161 76 140 158 82 136 148 73 138 148 72 134 151 83 137 154 90 147 156 87 143 154 87 153 164 102 147 160 91 138 158 91 143 161 98 140 158 98 153 161 97 155 169 113 146 160 93 144 155 82 153 165 98 158 173 112 147 168 100 139 158 78 148 163 79 155 166 83 155 162 88 154 168 109 161 178 121 157 177 119 146 165 103 152 159 97 147 145 86 161 161 112 188 175 146 168 147 112 158 139 106 160 145 117 170 160 136 174 163 140 167 153 126 163 151 124 161 149 123 156 143 117 159 147 120 153 142 115 148 134 108 144 128 103 144 128 103 124 107 82 118 99 74 127 106 83 122 99 76 132 113 89 148 133 108 144 127 104 124 104 80 117 97 70 129 110 79 140 118 88 144 120 90 158 136 105 171 153 120 182 163 131 197 181 154 214 198 172 240 230 213 227 190 149 229 167 97 245 187 113 238 187 111 214 181 132 194 179 133 173 164 104 174 151 84 217 171 86 232 153 76 217 142 76 232 167 95 239 158 66 234 151 50 221 159 62 177 163 93 145 151 88 139 150 92 141 151 90 140 151 91 142 150 85 152 155 93 154 158 96 179 159 103 201 157 101 192 160 89 188 159 90 195 154 73 170 152 90 155 156 101 148 154 97 158 161 107 155 160 103 142 145 82 147 147 87 149 147 83 
133 156 75 135 155 81 130 150 76 153 142 65 139 153 80 133 155 81 148 164 90 154 165 101 160 171 115 146 162 96 148 166 97 157 171 105 147 161 97 162 165 90 162 159 89 176 139 64 165 154 70 151 168 93 154 167 98 157 177 107 144 166 92 141 165 89 140 164 88 150 166 102 157 174 117 163 182 116 163 182 123 156 176 117 157 172 113 157 163 104 165 162 123 182 168 138 158 137 101 155 135 102 160 144 116 166 155 131 173 161 135 163 145 114 158 138 105 149 131 101 148 134 105 151 137 108 147 134 106 138 123 98 130 111 87 134 117 92 127 109 85 111 91 67 111 87 65 119 94 72 129 108 84 146 129 103 135 117 93 121 102 78 106 89 63 121 104 77 138 120 91 145 125 97 150 127 99 161 138 107 183 164 134 198 183 156 214 199 172 239 228 210 250 238 218 248 231 207 249 233 213 249 236 220 251 241 231 249 243 231 238 231 212 210 191 146 229 173 83 228 152 61 217 144 61 253 171 87 253 172 87 248 168 73 233 174 87 224 194 134 202 187 139 187 183 144 183 180 138 181 178 137 172 173 128 161 167 113 158 169 113 168 172 122 174 166 114 159 159 93 146 147 92 155 151 104 148 152 92 140 150 94 150 159 105 155 161 107 157 163 107 148 152 88 169 150 92 194 162 106 
131 153 74 135 148 76 142 150 86 183 120 59 180 117 55 155 147 69 167 151 62 179 168 89 167 177 120 148 168 104 159 175 112 166 174 112 146 153 86 160 157 85 162 145 70 177 142 70 166 148 67 143 166 84 146 160 86 146 160 87 141 161 90 134 157 82 137 159 92 146 167 105 150 172 110 153 172 100 158 175 103 159 169 95 187 174 113 168 170 110 180 178 137 176 162 131 153 132 96 154 134 101 155 139 111 162 150 125 171 158 130 162 143 110 152 128 92 150 131 98 158 143 114 150 135 106 145 129 102 137 118 94 124 103 80 117 99 75 119 102 78 104 84 60 109 85 63 119 98 75 127 108 83 142 126 99 136 121 95 112 96 71 101 85 61 112 95 72 131 115 89 144 126 101 152 131 106 152 128 97 179 160 130 206 191 167 219 205 181 239 227 210 250 237 218 252 240 222 253 240 224 251 238 222 252 240 226 252 244 233 253 246 237 249 244 234 231 212 184 189 165 99 174 151 75 217 162 81 220 169 91 247 177 113 247 187 142 241 202 173 219 183 150 215 179 146 189 178 145 184 177 143 182 177 143 174 171 134 165 165 125 149 150 109 154 158 97 150 158 93 159 162 112 164 170 122 154 165 109 152 162 105 161 163 101 152 154 82 163 164 90 157 160 94 179 153 92 204 168 113 
140 154 86 135 152 85 144 157 100 161 117 61 174 105 57 163 129 62 193 142 64 212 164 74 166 168 101 147 164 97 151 168 106 149 162 96 148 155 92 148 157 95 135 150 73 141 148 74 149 159 81 137 157 82 137 152 84 134 150 86 130 152 80 140 156 89 138 155 91 135 155 89 157 171 110 161 170 110 156 170 101 155 164 99 182 167 105 162 166 112 195 187 158 170 154 123 152 132 97 154 135 102 151 135 103 165 150 125 174 159 131 164 146 113 159 137 103 159 139 106 154 136 106 141 122 94 124 106 79 133 116 92 141 126 102 120 104 81 98 82 59 105 86 64 108 90 66 128 110 86 121 103 78 128 110 84 123 103 79 109 93 69 101 85 65 107 91 72 125 109 87 139 120 99 135 112 87 148 123 93 174 153 122 203 184 156 232 218 195 244 233 217 248 234 216 247 232 212 246 230 208 247 232 212 249 236 220 250 239 227 252 244 234 252 247 238 248 244 233 202 203 166 160 167 99 167 158 99 160 157 90 188 159 107 213 164 120 211 163 113 181 152 90 171 148 88 152 151 92 150 161 102 147 160 100 153 163 109 146 154 104 148 148 87 205 178 93 196 164 93 167 163 109 162 163 107 167 164 107 169 162 103 200 173 115 165 151 83 139 154 81 141 158 93 147 149 84 157 159 90 
140 156 85 129 141 80 145 159 105 152 150 97 153 148 90 149 143 80 145 150 88 162 154 80 148 155 84 144 154 90 144 163 103 142 163 93 154 168 101 168 170 106 164 168 92 141 158 76 137 153 82 151 148 76 150 148 77 140 153 77 131 151 74 144 158 97 152 166 116 148 166 107 154 170 109 158 168 107 151 165 98 154 166 110 165 155 94 162 163 113 199 186 161 167 152 119 148 129 94 145 126 93 150 135 105 173 161 136 170 154 124 162 141 108 148 123 88 143 120 86 151 130 99 153 134 106 138 121 96 135 120 97 144 129 108 130 116 94 102 87 63 101 84 59 114 98 73 125 108 84 120 103 78 124 106 81 124 105 83 124 108 86 102 87 66 107 92 73 130 117 97 139 122 103 132 113 89 154 133 106 177 156 127 201 179 149 218 199 170 242 230 211 245 234 219 238 221 195 244 229 207 246 231 211 246 232 216 248 235 219 249 239 224 251 243 231 250 246 236 226 224 204 156 166 107 154 164 103 143 160 97 144 158 94 156 161 100 148 156 89 147 158 83 195 168 80 214 171 82 179 167 95 144 158 91 149 158 97 126 144 88 165 159 85 173 143 76 182 136 69 177 147 82 184 138 76 165 123 61 183 148 92 216 187 133 173 154 97 141 155 88 136 154 86 147 158 90 145 158 93 
134 149 79 134 145 85 133 149 88 134 155 96 123 148 83 133 149 84 139 152 93 136 151 89 139 157 89 140 153 87 135 155 91 179 165 77 228 171 52 232 170 57 232 171 64 221 174 66 191 163 80 174 149 87 198 168 83 220 176 81 204 156 70 215 176 98 214 181 101 182 174 119 171 180 122 170 173 113 146 157 80 155 161 97 155 166 95 163 169 122 188 175 147 164 149 115 148 130 95 144 127 95 154 140 111 172 160 133 171 154 122 166 143 109 161 136 102 157 133 99 160 139 107 164 147 120 157 142 116 144 129 104 134 120 98 128 114 92 105 90 66 111 96 70 117 102 77 123 108 83 131 116 90 130 114 89 129 114 90 121 109 86 111 99 79 101 88 69 128 116 96 120 106 86 142 126 104 161 144 120 179 158 132 212 195 169 234 219 194 244 231 212 246 236 221 232 212 192 235 218 196 238 222 201 239 226 207 244 230 212 246 234 216 247 238 221 248 242 228 247 243 231 172 178 136 146 159 100 144 161 104 150 153 90 169 149 89 184 129 76 202 150 64 225 155 53 222 139 55 225 157 66 175 159 89 128 133 84 119 134 74 163 157 97 149 148 81 143 121 61 149 108 52 160 101 45 163 115 43 155 126 58 166 154 93 129 116 64 129 150 93 139 154 93 148 156 93 153 158 99 
103 139 50 132 153 96 114 139 69 120 146 82 125 146 77 132 153 95 139 150 80 131 148 82 132 151 89 126 150 74 123 143 69 128 140 68 214 152 60 227 134 41 211 147 58 208 147 49 203 158 65 203 166 65 231 181 75 203 147 55 210 140 58 185 147 69 211 169 74 202 141 70 218 140 61 225 135 73 224 149 70 178 161 75 168 158 80 174 177 134 182 170 142 163 149 115 152 136 101 143 127 95 151 137 109 170 157 128 164 145 111 162 138 103 160 136 101 164 140 106 167 146 114 171 154 128 171 157 131 152 138 113 137 122 99 130 116 92 91 77 53 112 99 73 116 102 76 116 102 76 123 108 83 126 112 86 126 113 87 114 103 80 96 84 66 90 78 59 121 109 90 122 108 89 151 135 115 172 156 132 196 177 152 222 205 180 236 221 195 240 226 201 243 233 216 218 197 175 219 196 171 224 205 181 229 213 192 231 218 199 239 228 210 244 234 217 246 239 224 248 242 230 210 212 189 155 161 110 183 153 83 176 147 91 153 142 75 184 127 67 202 141 53 229 159 46 213 134 56 218 145 53 189 140 67 126 139 77 134 140 78 165 117 73 166 129 76 143 135 71 121 138 76 131 134 81 130 124 63 135 145 74 139 147 88 129 142 78 117 141 79 120 143 75 137 140 84 153 150 102 
102 134 35 116 142 80 111 147 62 121 149 76 131 152 95 128 149 82 163 131 72 146 150 81 121 136 64 120 145 73 122 140 72 167 136 67 199 148 62 176 129 39 174 140 60 142 146 73 162 151 73 187 154 67 208 163 56 194 143 47 207 157 78 154 144 74 185 150 55 196 146 75 184 110 47 157 107 36 204 121 52 222 128 59 215 131 62 195 181 151 178 166 140 163 149 115 153 137 103 146 130 98 147 133 103 167 152 121 160 140 104 161 137 101 158 134 98 166 142 106 170 149 116 176 159 133 178 163 138 161 146 123 139 126 102 126 116 91 94 84 60 107 95 72 113 101 75 113 101 75 112 99 74 116 102 79 123 112 87 99 90 69 74 65 47 87 76 58 116 105 87 133 120 102 154 141 120 182 167 144 211 194 167 228 211 184 236 219 192 238 223 197 240 227 205 212 193 171 205 183 159 217 197 176 222 204 186 231 216 202 238 226 210 239 229 211 239 231 212 245 237 222 224 222 202 143 152 94 153 109 48 170 139 77 165 130 77 145 118 67 150 141 58 198 131 43 161 119 52 172 135 73 214 139 66 175 141 61 135 117 64 136 112 64 131 133 78 125 139 71 134 145 87 135 149 94 120 136 80 139 146 96 141 152 96 135 140 76 124 143 79 127 133 76 129 138 81 141 148 88 
123 145 74 107 135 72 102 134 58 118 147 77 130 149 90 114 146 60 125 146 83 117 133 65 126 136 72 139 140 78 134 139 69 182 135 66 133 146 71 133 141 61 147 151 67 157 140 75 154 146 78 145 140 98 135 155 88 180 153 73 186 154 75 133 138 72 140 151 65 129 148 54 160 125 59 176 132 57 190 129 55 181 111 53 210 127 57 194 178 141 172 160 130 161 146 113 149 133 100 147 132 100 150 136 106 161 144 111 154 131 94 154 128 92 154 129 93 168 142 107 173 150 116 176 158 129 180 165 140 168 155 133 148 138 118 113 104 83 89 80 58 94 83 62 105 95 72 105 99 69 108 94 71 108 97 74 112 103 81 89 81 62 53 44 26 89 79 62 121 112 95 137 126 109 160 147 126 199 182 157 209 189 158 219 196 162 229 206 173 240 223 195 239 225 201 212 195 173 203 183 159 203 182 162 213 196 180 223 208 193 230 216 200 234 222 203 234 222 201 241 230 211 235 229 211 152 158 102 133 135 73 165 137 74 159 145 92 130 137 71 132 134 83 155 157 107 136 146 85 200 158 55 184 133 60 201 119 49 166 130 55 198 125 70 141 142 86 128 141 79 135 146 87 137 144 87 117 133 74 147 160 120 130 141 84 126 135 60 138 148 83 134 142 83 135 137 78 133 146 82 
117 147 81 123 152 95 113 142 70 119 146 85 135 149 96 111 127 61 107 123 57 103 128 60 120 144 84 128 139 79 129 141 63 156 126 61 130 144 73 138 144 64 147 155 62 161 144 72 134 139 76 134 141 78 127 149 76 143 154 87 132 111 48 126 144 80 136 164 80 110 145 49 132 146 74 165 150 82 149 141 77 167 117 41 185 137 53 176 164 128 163 151 120 153 138 105 150 134 101 146 131 99 150 137 106 157 139 106 152 128 90 149 124 88 157 131 96 160 134 99 170 148 113 178 159 130 182 167 141 173 161 139 161 152 134 120 112 93 77 69 49 83 74 54 86 77 56 94 88 62 96 85 64 102 92 72 103 96 76 80 72 54 50 41 24 94 85 68 131 122 105 137 127 110 167 155 134 194 177 152 204 183 152 219 197 164 220 195 158 234 216 185 237 223 198 226 213 194 195 174 156 202 181 165 214 198 183 219 204 189 225 209 192 227 211 190 228 212 187 234 220 196 236 227 207 169 172 128 166 161 104 152 142 77 149 137 80 140 147 84 145 153 74 160 167 91 146 163 94 208 155 55 197 131 51 161 102 43 161 144 71 194 122 70 130 134 77 141 141 90 134 136 81 146 155 101 115 132 73 132 147 95 121 129 70 127 135 64 118 137 70 115 138 73 126 116 51 157 130 76 
110 142 60 118 145 85 125 147 92 129 152 96 127 153 104 109 120 71 86 94 50 112 133 85 107 129 65 120 142 74 109 137 69 103 132 62 105 136 66 112 136 64 125 157 59 122 137 83 114 141 64 108 127 64 122 107 40 130 80 33 129 145 87 107 135 65 120 152 66 104 137 53 114 133 73 131 149 94 126 146 78 151 147 81 156 145 82 166 161 129 160 147 116 150 136 102 145 129 95 140 125 93 149 135 104 154 137 104 147 124 86 155 129 93 159 134 99 166 140 104 175 152 117 181 162 132 183 167 141 178 166 144 168 159 143 133 124 107 66 58 39 72 64 45 72 63 44 76 69 48 88 82 59 86 78 60 90 83 66 71 62 45 59 50 33 105 97 79 134 125 108 142 131 114 181 168 148 197 180 155 204 183 152 218 196 163 226 203 169 234 214 183 243 228 203 231 217 197 195 179 162 216 202 187 221 206 193 228 217 201 228 215 196 230 214 190 224 207 179 227 211 184 230 219 196 174 176 133 154 152 86 173 123 66 165 142 78 185 161 88 141 157 92 138 143 80 132 128 67 150 148 82 231 169 57 196 132 51 151 144 72 166 144 90 172 161 113 181 170 126 164 157 108 161 160 105 139 146 88 144 139 89 165 159 109 153 149 80 161 150 94 134 137 72 125 130 62 138 93 48 
123 141 86 114 138 74 121 150 84 119 146 78 115 142 84 178 162 69 166 152 68 161 143 55 162 142 56 212 158 50 163 152 62 106 132 68 111 131 68 117 128 73 111 132 63 114 132 68 106 124 57 105 125 69 112 134 59 109 97 36 102 118 60 107 132 60 89 120 49 103 130 50 116 137 81 130 145 86 91 120 36 148 147 82 123 139 81 148 148 107 155 138 101 135 122 85 113 108 70 125 112 78 139 124 92 152 136 104 148 125 89 147 121 85 158 133 97 166 141 104 170 145 107 178 153 120 185 165 135 183 170 147 169 162 144 134 127 108 68 60 41 66 58 39 61 51 32 60 52 34 73 68 43 71 62 45 76 67 50 62 51 34 78 68 48 109 101 82 131 123 104 144 132 113 177 163 143 197 180 153 215 193 163 222 197 161 231 207 171 232 211 177 238 221 193 225 210 191 215 203 191 224 212 201 227 215 202 234 223 207 236 224 203 229 214 188 214 193 163 219 198 169 228 215 191 178 180 135 163 164 98 161 146 81 174 155 99 183 160 113 151 165 108 145 144 91 149 148 85 145 155 97 161 163 72 203 125 40 164 152 72 138 150 83 149 158 101 138 152 97 131 155 84 145 156 103 139 154 84 151 158 95 156 155 96 139 144 84 145 148 93 132 126 64 119 134 60 137 111 60 
117 136 73 117 142 66 113 142 73 116 139 65 123 128 69 147 137 61 203 154 50 171 133 44 160 134 56 177 141 65 197 140 54 118 132 74 122 143 74 130 130 72 116 130 73 104 123 66 124 145 81 146 151 89 124 144 72 128 132 81 100 120 59 117 133 67 109 129 64 121 137 69 142 151 83 115 131 71 94 104 46 98 129 60 100 118 64 141 140 91 150 134 95 148 132 96 117 110 74 93 95 58 132 118 89 151 136 105 150 129 94 157 133 96 157 130 93 167 138 100 171 144 103 178 150 111 184 161 124 187 171 143 171 160 140 130 121 102 71 62 44 60 50 31 57 47 30 55 44 27 63 59 33 64 55 35 73 63 44 72 62 40 88 80 56 106 96 77 126 116 95 138 127 105 168 154 132 196 176 144 207 181 144 213 184 143 228 202 164 235 215 182 236 216 185 228 214 194 216 206 195 226 214 203 237 225 213 239 226 211 235 221 200 224 208 181 217 198 169 210 187 156 219 204 174 173 176 119 171 180 126 161 162 99 168 164 114 158 155 93 146 159 92 147 149 80 153 159 100 154 159 100 155 165 96 171 146 80 147 150 78 134 153 77 133 154 87 136 154 91 141 160 103 137 156 90 139 156 94 146 161 104 152 168 106 144 164 107 132 144 81 142 139 74 146 146 82 129 133 73 
114 136 62 123 142 69 113 138 68 119 141 62 107 120 58 130 143 92 157 137 75 126 128 54 127 127 61 147 149 87 157 143 80 123 137 75 117 139 81 130 141 67 130 152 71 133 152 89 142 156 101 141 148 88 119 129 62 171 173 138 152 145 85 145 146 84 136 140 63 120 147 66 110 131 56 121 145 75 110 132 80 110 137 80 121 146 91 130 129 83 140 133 94 147 133 100 138 122 89 101 96 63 105 102 73 147 133 103 153 133 96 159 137 96 167 140 101 166 136 97 170 144 102 176 147 107 177 150 110 188 169 137 173 160 137 133 123 99 73 65 46 55 45 27 64 57 32 51 40 25 52 46 25 59 50 30 94 88 63 97 88 59 81 70 50 96 85 66 114 102 81 137 126 104 180 167 143 191 171 136 200 171 131 209 179 137 221 193 152 233 210 175 236 215 183 234 217 192 222 210 197 233 220 207 230 217 202 223 206 184 223 204 177 219 199 170 213 190 159 211 189 158 221 200 170 227 212 181 210 201 161 199 188 139 172 176 126 153 155 92 156 152 95 149 160 85 156 156 96 150 149 92 161 163 107 150 160 104 216 184 94 203 160 85 153 129 71 130 130 69 128 142 77 155 170 114 140 155 92 138 162 98 143 155 95 129 140 90 125 144 70 126 134 68 124 144 93 130 137 89 
120 138 66 126 144 76 139 154 94 145 152 87 119 140 59 103 133 85 112 130 62 123 143 56 125 140 72 135 144 90 136 139 78 139 150 82 126 143 75 114 138 71 133 154 87 140 166 81 134 150 82 144 157 100 124 149 86 144 158 101 152 156 103 141 148 82 137 145 72 124 139 70 128 155 79 117 144 76 100 124 53 105 128 62 98 117 59 117 121 74 140 138 98 111 118 76 118 111 70 117 104 70 105 101 64 135 126 90 147 139 91 149 139 92 163 140 99 169 140 100 158 142 96 166 141 99 169 146 98 184 163 126 182 167 142 130 121 89 67 60 40 51 43 25 74 74 41 41 33 18 53 45 22 84 86 48 123 131 92 94 93 62 100 89 72 93 82 63 114 101 79 134 122 100 186 173 148 186 167 131 183 154 115 185 151 109 201 167 124 215 188 149 235 214 181 235 221 195 227 215 201 222 208 192 229 214 195 226 210 186 204 181 147 210 187 154 195 167 131 194 169 137 193 158 120 221 195 158 225 194 158 214 179 134 198 171 117 182 154 106 174 159 103 146 153 87 162 165 118 149 147 87 157 147 100 163 158 99 214 139 48 204 116 55 183 103 64 158 154 110 141 147 99 137 145 78 153 160 100 145 165 108 146 156 98 124 120 66 136 152 91 125 141 70 128 148 104 124 131 84 
122 137 71 118 130 74 129 140 79 138 152 94 124 145 63 118 133 74 116 134 71 134 139 68 146 150 81 157 155 99 142 145 90 140 152 82 139 148 82 133 145 84 132 144 71 136 151 83 131 146 79 135 153 91 141 162 106 143 162 106 143 157 97 140 153 86 141 160 84 143 156 93 126 143 86 116 130 74 117 132 69 98 113 48 113 125 56 95 109 43 123 123 68 133 132 79 97 113 63 123 119 81 144 138 94 135 138 85 139 142 85 124 136 78 145 148 95 161 139 94 154 145 96 159 141 95 162 141 88 173 158 106 182 170 132 124 123 85 95 94 58 85 78 46 82 94 45 41 36 19 97 110 54 103 112 66 109 111 76 100 110 72 86 77 57 103 104 73 94 85 56 141 129 98 166 153 116 159 142 96 171 140 100 179 146 101 184 152 105 183 164 117 213 188 149 234 216 188 234 221 204 232 216 194 226 207 174 225 202 164 230 206 172 196 170 134 183 156 119 156 130 96 159 121 76 185 150 103 178 138 87 169 125 76 157 118 62 132 99 49 164 147 82 166 160 76 143 156 82 149 155 86 150 152 101 143 146 87 157 136 84 171 95 51 138 114 63 154 136 98 153 165 116 130 131 66 145 134 80 138 140 86 132 130 77 123 108 59 130 140 67 114 129 51 122 139 95 117 126 79 
126 134 76 139 149 95 134 139 81 132 150 94 142 156 99 138 139 81 129 138 82 147 146 86 144 146 79 135 141 83 131 144 81 120 132 70 135 145 91 125 146 84 148 159 100 138 161 108 117 136 78 126 144 79 130 142 75 135 148 80 136 149 69 147 150 96 144 162 105 147 157 97 141 159 91 136 145 81 137 148 86 129 137 70 132 150 81 128 138 72 138 137 78 144 137 74 112 131 66 124 132 70 134 142 88 133 148 86 130 147 83 115 137 69 126 150 93 156 147 95 164 173 119 153 152 96 158 154 95 158 158 99 162 171 124 129 129 87 114 112 67 150 150 98 146 159 93 94 106 64 133 155 95 122 131 78 127 129 92 141 148 100 140 150 99 114 133 83 111 114 64 136 134 83 139 141 83 148 132 80 165 148 102 176 156 105 181 162 107 162 163 114 216 194 154 219 198 167 215 195 168 201 176 140 215 193 154 209 184 140 216 187 147 204 178 144 166 144 106 140 126 88 137 120 73 143 137 86 131 116 71 132 134 75 124 123 55 115 107 46 142 152 84 132 140 76 132 135 71 139 135 68 128 137 78 151 162 103 136 141 82 139 119 61 123 126 69 156 144 100 140 147 99 150 145 84 141 127 82 139 132 78 121 116 64 112 102 53 122 129 63 119 128 63 115 129 76 123 127 81 
130 143 89 127 144 73 124 143 74 110 132 72 130 153 86 124 140 65 128 135 75 132 140 78 136 148 84 125 130 62 126 140 65 110 126 64 122 133 79 126 139 89 119 132 74 118 146 84 110 135 73 104 123 64 116 132 68 113 130 57 127 148 75 141 143 79 140 159 95 145 163 88 133 152 82 133 151 74 145 146 77 147 155 80 154 163 92 130 154 74 132 137 74 136 147 72 133 153 79 138 149 86 136 154 82 138 154 92 133 156 88 113 135 62 115 143 77 156 155 90 156 164 106 147 158 95 126 132 70 142 161 99 155 165 114 162 165 116 148 149 89 153 165 107 158 174 124 128 155 91 136 149 86 131 160 89 139 147 97 142 158 91 153 171 118 124 151 93 146 150 97 141 154 88 151 158 82 144 149 87 152 160 95 152 164 86 157 164 102 163 174 129 200 185 136 187 185 143 189 181 139 188 176 130 207 190 148 186 176 126 221 204 166 201 184 143 175 163 120 132 131 87 151 156 103 137 141 70 123 131 69 125 146 91 123 152 79 126 143 67 144 158 86 153 155 95 130 143 81 149 145 85 143 140 68 140 144 86 135 145 72 134 140 73 120 134 82 143 151 100 140 152 96 148 154 91 142 137 82 136 139 85 135 143 84 133 136 91 112 129 66 129 147 86 119 137 72 105 115 71 
137 160 104 115 139 76 102 121 60 108 129 73 99 110 53 149 126 59 193 139 67 215 134 79 218 139 86 156 135 68 121 130 63 120 136 69 119 141 80 124 135 75 117 132 72 125 147 62 114 136 68 110 126 63 116 138 65 124 146 63 126 147 66 144 154 87 130 152 85 143 155 93 134 151 81 131 146 75 149 153 90 149 147 70 139 149 79 128 151 76 131 130 64 134 147 79 134 152 76 127 145 72 129 152 78 135 151 80 134 154 89 134 153 91 116 141 60 144 154 85 157 171 103 131 153 86 134 153 82 128 151 80 149 157 91 154 163 95 152 155 92 147 162 100 138 161 100 134 158 81 132 151 84 138 161 94 148 161 103 142 161 88 141 159 97 118 147 75 140 151 90 143 154 85 153 166 93 147 163 99 132 151 80 129 155 86 144 165 112 141 160 104 159 167 108 156 166 118 157 160 99 159 160 102 168 176 124 156 170 111 169 176 119 186 188 139 169 175 119 155 168 113 148 154 81 150 161 92 155 170 115 133 151 98 121 148 83 131 148 69 154 161 95 149 156 88 134 151 77 160 154 94 147 143 68 148 151 101 155 165 115 142 157 97 134 149 85 136 144 84 139 148 85 159 170 119 149 166 108 144 162 84 153 154 98 144 158 109 137 156 110 132 150 90 140 155 100 146 161 109 
123 143 70 115 143 84 122 145 90 111 128 71 95 100 53 189 120 57 201 120 51 169 141 76 213 118 73 200 124 71 157 131 80 120 139 73 106 132 66 116 136 77 114 136 65 130 150 74 104 115 64 114 118 68 130 142 80 131 160 84 135 155 86 130 151 83 127 148 83 139 162 103 130 154 88 132 149 82 144 150 88 148 148 74 131 146 67 122 151 82 139 150 79 148 163 99 147 165 100 129 144 79 143 161 101 134 148 79 126 149 84 135 156 97 139 152 84 142 157 92 151 162 91 127 157 75 127 156 73 134 155 84 138 160 91 148 164 90 132 153 81 136 163 80 137 158 92 129 154 79 151 164 107 154 166 91 154 159 85 136 159 80 130 149 84 132 148 73 133 155 87 133 150 71 144 162 84 139 162 93 136 155 90 132 155 97 133 155 96 145 158 102 146 158 96 146 160 99 150 161 100 125 149 75 137 155 78 140 163 103 152 171 116 147 167 94 158 174 118 146 163 97 149 165 107 140 153 88 164 173 113 154 168 111 137 152 86 129 148 77 142 145 82 141 155 92 110 134 66 132 145 79 140 155 94 134 143 85 150 157 90 146 162 95 134 154 90 138 154 86 136 151 83 156 167 119 133 155 95 133 148 88 134 152 93 130 154 78 131 152 97 129 154 88 145 166 118 140 153 104 
127 148 73 123 156 75 128 153 100 129 149 87 112 114 62 130 136 69 148 141 70 138 147 80 145 141 75 154 122 66 146 148 92 124 135 68 123 143 82 137 146 86 125 139 71 110 123 63 99 113 63 115 130 80 131 145 92 142 155 101 148 161 103 131 155 89 130 146 76 139 159 97 136 158 83 137 157 80 129 149 74 139 151 84 154 153 80 150 164 107 139 150 83 144 167 97 139 162 101 131 148 85 138 149 90 149 159 104 127 151 80 135 158 104 143 160 104 143 154 95 143 152 86 141 160 90 139 156 88 141 152 89 126 156 77 136 157 87 125 154 75 125 152 62 130 144 63 128 157 73 145 157 103 158 158 106 147 164 92 130 152 72 127 152 79 146 155 93 134 153 92 126 151 87 142 151 72 142 159 91 145 159 90 121 143 72 131 158 75 142 159 93 133 149 72 131 151 84 129 153 91 154 150 79 192 155 72 138 159 95 130 154 86 143 168 98 143 158 102 130 143 81 143 164 110 154 159 108 160 166 109 156 165 111 150 152 84 133 151 84 145 143 87 141 159 108 125 140 81 136 152 90 152 168 123 143 152 103 138 150 92 134 146 85 140 153 96 148 158 94 137 160 90 156 168 118 132 155 96 139 149 83 134 151 83 131 153 96 136 162 103 118 147 76 139 155 102 132 151 101 
129 154 90 129 160 72 135 148 88 147 162 104 138 152 82 130 141 79 133 143 77 135 156 94 130 146 78 143 156 92 135 151 88 118 139 76 122 146 82 144 157 95 123 145 87 100 125 62 120 142 85 126 151 92 140 160 107 139 159 100 141 158 92 134 158 97 132 147 73 126 139 71 133 150 88 143 153 82 133 144 71 139 152 82 146 152 92 134 140 86 131 136 79 136 149 90 136 159 101 134 154 100 139 157 88 144 160 91 135 152 90 145 156 105 149 166 113 135 154 95 156 166 112 148 169 97 145 166 99 147 161 92 129 152 73 127 155 82 143 165 102 134 155 78 134 147 65 134 156 69 155 165 108 145 149 93 132 146 77 136 155 73 130 150 67 126 145 73 135 153 92 134 160 101 143 154 89 126 149 62 129 150 66 124 139 64 119 137 62 131 142 72 135 145 67 130 146 70 129 143 75 151 147 77 149 155 92 138 157 99 132 148 72 147 156 96 152 158 105 139 142 88 138 154 91 169 167 120 153 154 103 137 145 79 163 161 103 142 155 85 147 156 92 148 167 105 141 155 102 145 154 98 145 153 102 129 140 82 124 137 76 125 137 71 135 150 92 137 147 95 126 151 78 151 157 104 136 154 94 123 142 75 131 146 84 133 147 92 133 160 109 119 144 83 126 142 86 151 168 121 
122 143 85 126 149 75 125 141 78 139 150 95 143 156 100 145 154 94 131 145 79 121 147 81 140 147 82 146 153 93 138 153 94 120 138 78 122 143 74 131 147 77 124 147 87 115 138 74 117 139 81 132 151 91 138 161 104 136 159 103 129 152 90 131 151 89 121 140 72 130 139 74 134 139 78 149 154 90 139 141 80 145 156 88 139 149 79 129 139 70 131 134 70 135 139 75 136 146 99 144 157 106 148 162 97 147 160 96 138 151 92 150 157 102 142 159 97 134 157 86 144 166 87 137 172 80 158 178 128 153 170 113 152 168 101 146 166 98 155 170 116 128 149 78 130 150 71 139 152 73 152 160 84 144 146 82 134 144 69 127 143 55 129 148 59 129 153 69 132 153 86 142 152 92 136 148 83 130 144 67 120 139 67 127 139 76 138 143 81 135 144 72 139 150 72 143 152 83 133 147 69 143 149 76 141 151 83 136 145 72 136 142 71 142 156 92 134 144 80 131 138 78 135 136 82 143 144 83 143 154 95 141 145 78 154 159 98 130 145 76 134 157 79 143 162 99 132 150 88 139 154 86 159 168 109 141 149 94 117 139 74 131 135 71 129 147 83 128 136 73 125 148 75 131 147 87 135 150 88 133 141 82 136 134 82 135 144 79 130 151 94 129 154 95 136 149 91 124 148 96 
123 141 87 125 138 80 132 152 85 127 143 82 154 166 124 137 152 98 132 148 90 118 143 84 134 145 82 146 154 97 139 151 92 136 142 77 130 137 69 138 144 81 146 147 94 141 144 84 133 142 77 132 144 77 135 147 84 147 164 115 142 153 94 146 153 96 130 143 76 143 144 81 145 144 83 146 153 82 138 141 72 146 153 92 142 154 89 130 148 73 132 140 75 141 140 79 137 140 87 150 160 114 140 153 96 137 147 94 155 166 120 163 169 121 149 161 98 136 165 76 138 172 63 127 162 80 131 156 101 148 162 103 139 148 83 154 164 102 150 164 108 130 148 75 139 147 72 171 155 72 145 155 71 155 148 73 146 147 72 145 154 63 141 161 68 130 153 78 138 158 92 143 142 78 131 145 75 137 150 87 123 139 78 129 140 72 137 132 74 138 144 80 134 147 70 149 159 100 125 138 67 137 143 73 133 138 74 136 148 85 123 144 77 125 146 75 130 145 80 129 141 85 136 153 96 152 154 96 145 144 84 159 156 102 138 146 82 131 140 72 138 153 82 135 136 69 142 141 69 144 152 90 150 157 102 155 151 98 144 153 95 140 142 88 134 153 97 126 138 67 117 143 63 131 152 86 131 149 73 140 151 94 122 122 68 123 137 72 129 154 89 113 142 76 130 148 98 118 133 79 
126 143 90 129 141 85 120 151 69 124 154 70 159 179 138 133 154 96 122 146 82 124 141 83 123 139 72 120 141 78 124 140 78 148 150 95 135 144 84 116 133 69 136 143 87 149 150 92 143 141 84 124 135 65 129 132 72 147 143 92 140 137 81 142 144 81 145 151 83 145 151 89 148 149 91 145 155 90 148 155 90 146 149 86 141 151 84 128 146 76 138 149 87 143 143 86 142 145 90 146 156 103 138 151 97 150 153 103 153 167 120 152 165 121 156 171 128 146 164 100 139 166 84 129 152 83 119 145 79 132 146 85 153 156 107 153 155 107 131 144 77 135 153 74 152 143 73 204 139 53 193 140 51 188 131 52 177 138 68 152 146 80 136 147 75 125 143 77 136 149 91 142 151 91 135 149 80 141 157 95 134 147 83 130 140 70 129 130 66 130 140 77 130 141 76 130 144 84 128 147 77 128 145 71 123 131 66 129 138 77 120 139 74 127 141 80 135 148 90 137 150 92 131 148 92 138 147 90 140 138 80 137 142 84 131 141 83 137 141 79 137 139 78 137 96 26 150 134 44 146 146 80 143 138 84 149 147 89 146 145 91 143 151 99 131 144 85 134 148 75 119 146 59 127 142 74 132 149 85 124 139 72 134 135 77 129 127 74 134 149 92 113 138 81 126 148 90 118 134 74 
118 135 76 112 141 61 115 140 66 133 153 92 141 158 109 126 149 92 124 141 75 128 132 74 120 139 74 112 137 77 120 140 84 131 133 69 129 132 74 114 132 71 123 138 77 145 143 86 143 146 89 128 139 71 130 136 78 140 135 83 141 134 81 138 132 76 137 134 75 148 143 88 153 144 91 143 147 81 139 148 97 145 152 101 128 143 82 126 141 75 130 149 85 141 150 94 145 152 101 143 157 103 135 146 91 139 147 90 140 145 90 139 148 92 143 153 96 149 157 103 142 154 96 129 144 81 123 141 75 128 139 77 139 140 81 149 153 99 135 146 77 143 154 79 146 149 82 162 135 71 164 116 46 204 150 61 192 148 71 156 150 98 132 148 89 124 140 82 137 145 90 138 148 89 138 149 87 140 153 92 142 151 89 137 137 79 129 136 81 122 135 81 126 137 81 126 135 82 131 145 90 125 146 78 136 143 84 128 133 82 115 132 72 121 135 80 126 143 83 121 140 80 115 133 75 123 138 74 131 136 69 126 139 82 124 138 76 142 141 86 125 131 79 118 114 60 124 117 54 131 123 57 137 137 78 158 153 105 141 129 89 115 107 63 128 126 74 127 147 66 120 150 59 129 150 72 148 160 110 127 141 84 133 140 82 140 142 84 137 148 81 129 142 84 118 138 66 125 138 73 
117 139 67 109 138 50 120 142 77 137 155 98 121 133 75 119 134 76 132 144 81 130 137 80 120 136 66 121 142 81 127 143 90 127 133 73 142 142 86 132 142 88 120 134 72 135 141 80 135 143 85 131 143 76 141 149 91 151 145 94 139 141 87 134 138 85 127 129 76 145 134 84 150 140 88 141 144 85 138 149 99 134 131 77 123 132 74 136 142 81 126 145 81 134 147 93 136 144 93 133 142 87 127 138 78 138 149 89 151 154 102 146 151 97 141 149 96 139 151 98 134 153 101 128 143 87 131 140 74 126 139 69 129 140 74 134 144 81 134 142 75 142 144 82 146 146 87 146 138 80 139 130 60 145 135 67 145 127 70 143 134 83 126 141 85 124 136 82 137 145 91 144 152 94 124 144 82 129 150 88 140 152 104 134 136 83 129 141 87 126 138 84 119 136 82 124 137 83 126 138 86 129 145 94 136 143 90 123 129 78 115 134 76 113 125 72 121 129 72 124 137 79 119 130 74 125 136 76 124 134 74 116 133 74 116 138 75 131 142 86 115 129 77 121 137 86 119 129 75 114 122 61 121 139 74 144 142 84 121 119 64 101 101 51 111 114 65 123 130 69 121 139 71 130 141 69 153 158 109 145 155 105 126 139 79 130 139 75 124 138 63 125 142 79 120 137 73 125 143 79 
108 117 56 123 138 63 125 136 65 128 140 63 127 135 70 127 137 77 134 147 86 133 143 86 124 135 69 118 135 65 135 142 82 126 136 75 134 138 77 136 134 77 131 133 71 136 138 84 135 145 94 131 142 86 141 148 96 140 142 89 129 136 79 125 135 79 125 133 78 147 138 87 146 138 90 133 140 87 137 144 93 138 137 84 128 131 75 139 137 80 126 138 81 127 140 88 130 139 86 133 140 87 127 139 82 128 144 85 138 143 91 139 145 92 136 149 104 128 141 89 121 140 85 125 140 84 134 139 78 127 132 68 126 132 72 132 140 80 143 151 93 142 150 92 144 146 88 148 146 88 135 141 78 128 134 72 133 133 77 132 136 83 124 133 80 123 132 79 137 142 89 128 132 78 118 128 70 129 137 79 131 139 90 126 134 81 128 138 82 122 134 81 122 135 83 127 136 83 125 138 90 127 139 88 124 136 82 121 131 78 120 136 81 113 126 72 124 128 75 123 132 82 120 131 77 120 130 78 115 124 71 111 125 67 113 130 68 111 133 76 101 124 68 113 129 78 114 123 72 110 118 61 118 130 68 126 135 70 132 124 64 130 119 64 116 121 69 113 121 64 124 131 71 119 125 59 121 133 79 121 138 88 116 125 69 124 130 71 116 128 62 115 129 61 117 137 74 119 143 77 
123 131 69 119 135 77 113 128 65 124 135 66 139 145 87 140 146 93 139 146 89 137 148 90 137 150 91 138 147 81 132 132 73 131 139 77 131 143 80 120 127 68 127 129 73 134 130 84 137 138 94 135 142 90 133 140 87 129 138 85 128 140 82 127 141 80 135 139 83 137 133 81 136 134 82 128 135 82 130 142 92 130 138 84 135 142 86 130 133 78 120 132 75 124 134 80 131 137 85 133 138 84 126 135 78 126 141 81 120 131 75 125 140 88 132 145 98 127 137 85 120 133 75 121 134 78 128 137 83 126 132 80 127 133 78 129 135 76 137 142 87 140 144 88 142 147 86 144 149 89 135 144 83 123 137 74 126 137 78 121 129 75 120 128 76 117 127 74 123 130 75 117 123 67 111 119 61 121 125 68 119 127 72 120 127 72 125 130 73 123 136 81 125 136 82 131 140 89 123 141 93 117 129 75 114 125 70 116 123 71 116 130 75 119 133 76 119 129 76 116 128 80 115 126 78 116 128 82 112 125 75 112 123 68 109 128 66 97 125 67 99 122 66 117 131 81 124 132 81 116 128 72 119 132 72 113 129 64 120 115 55 123 113 59 115 118 66 110 117 63 116 118 68 113 117 65 109 120 67 111 122 69 117 126 70 119 127 65 127 126 67 114 116 63 115 126 73 114 128 69 
122 123 66 126 137 82 122 132 75 126 131 72 139 145 90 136 150 98 134 145 86 140 147 87 145 153 99 141 151 96 125 131 77 120 125 67 131 141 84 131 140 91 123 130 78 123 126 76 131 137 86 138 147 94 139 147 97 138 147 100 126 142 85 118 132 68 129 128 71 131 125 72 134 141 85 125 134 80 122 140 87 120 140 79 130 141 84 128 137 83 127 137 82 131 138 82 134 136 81 135 138 81 134 140 83 134 142 82 123 131 73 121 136 82 127 135 84 132 136 82 127 133 74 125 133 73 130 141 83 135 144 92 129 136 84 128 134 77 136 143 84 140 148 82 137 143 80 129 132 74 125 130 73 122 135 75 123 135 75 120 127 72 125 133 79 120 131 74 115 122 63 114 119 61 116 126 66 122 131 73 127 134 75 125 134 68 123 131 71 126 136 79 127 138 79 129 141 85 124 137 82 120 135 77 121 131 74 118 125 72 113 129 76 120 136 84 115 130 77 111 134 78 113 133 78 113 127 74 108 123 69 111 124 69 107 129 69 100 123 69 106 123 70 126 137 88 126 136 86 123 138 86 130 139 86 120 135 72 113 123 58 123 119 65 116 124 72 115 119 66 112 115 61 110 116 65 111 118 68 113 117 67 110 116 60 120 121 57 142 124 64 124 115 64 111 121 70 105 118 66 
125 129 71 126 135 75 132 140 82 132 140 81 137 145 86 138 154 105 129 145 92 138 144 87 142 149 98 135 148 96 130 140 83 122 138 65 127 145 79 131 147 96 124 135 85 125 133 78 125 133 75 139 155 100 145 163 116 144 159 115 134 143 88 124 127 67 137 132 77 139 130 79 139 148 92 129 136 79 118 123 66 117 130 69 128 139 84 136 144 95 145 149 100 144 142 94 138 129 83 135 127 86 150 144 104 147 143 99 126 127 73 122 126 72 122 123 69 129 130 75 130 136 76 128 138 76 127 141 80 132 143 88 127 134 81 123 128 70 129 134 70 133 141 72 134 138 76 132 128 75 123 123 70 121 128 72 122 133 74 129 139 82 134 145 90 128 140 73 115 123 58 110 111 56 119 124 66 124 136 78 127 137 74 130 143 66 126 139 80 119 136 82 125 136 79 133 136 81 135 137 81 125 136 75 128 138 77 123 125 73 117 129 78 124 136 86 119 133 79 112 136 78 117 139 82 114 131 72 112 122 64 113 121 67 112 133 77 105 127 75 107 124 73 115 121 71 127 128 78 124 132 84 128 142 92 118 138 75 114 126 63 117 126 70 110 126 70 111 124 68 111 119 64 110 117 67 109 115 67 110 116 64 116 113 57 158 120 49 177 120 55 139 112 61 105 110 58 102 113 63 
123 133 70 119 126 69 126 135 80 133 147 87 134 145 78 130 145 83 132 143 88 136 137 87 137 143 98 122 140 89 132 148 90 136 161 83 126 152 68 131 151 87 128 142 88 127 138 81 125 133 73 130 150 90 144 170 114 139 161 106 133 137 82 130 129 72 137 135 80 139 139 87 133 146 89 134 140 84 142 141 89 140 144 91 147 149 102 161 156 117 163 155 119 154 143 109 140 126 94 125 110 82 119 104 79 120 109 77 119 118 72 122 125 70 132 131 75 129 131 73 125 134 74 124 140 77 122 139 76 120 136 74 124 133 73 119 122 63 119 121 56 121 130 62 125 127 69 129 119 68 121 119 65 118 127 73 122 139 84 133 147 93 137 140 90 133 132 75 117 125 65 113 117 65 116 123 67 119 132 75 127 134 75 138 144 78 132 144 87 116 137 75 126 135 76 134 131 76 137 133 78 127 136 69 123 133 66 126 126 74 124 134 82 128 136 84 122 132 77 115 132 74 117 138 79 117 134 74 123 130 75 127 132 79 121 136 80 114 128 77 117 133 82 128 135 83 131 127 75 128 123 74 131 135 83 119 126 70 114 116 65 112 125 67 107 127 64 109 126 67 114 120 66 114 120 63 109 118 58 108 116 57 133 106 54 167 98 41 169 92 42 151 91 50 124 103 54 117 115 60 
122 133 70 113 123 65 123 132 77 135 147 88 133 148 78 121 142 68 121 136 71 128 133 84 127 135 94 115 132 78 118 139 76 128 156 79 127 145 75 127 140 80 125 135 77 121 133 74 123 133 74 123 143 79 132 162 95 129 153 87 131 139 80 134 141 85 135 141 86 137 143 89 129 141 87 127 131 85 137 139 94 130 133 88 118 117 74 114 105 71 110 100 69 105 96 66 112 105 69 131 122 84 118 103 71 108 100 65 119 129 84 121 133 78 123 129 68 124 130 68 118 129 65 118 134 72 122 137 72 122 139 71 123 134 68 118 122 62 115 121 55 118 127 64 124 128 71 127 125 68 117 125 65 114 127 72 119 137 83 129 142 87 134 133 83 127 115 70 114 112 62 113 113 65 118 122 69 126 129 75 134 132 80 145 138 79 142 143 71 133 142 65 139 141 71 144 138 78 143 137 79 128 134 67 123 129 66 124 130 76 126 139 85 131 139 85 123 131 76 121 131 74 124 136 81 123 136 80 126 138 80 127 137 78 124 135 74 124 138 80 130 148 93 132 143 86 132 134 75 138 133 82 130 134 84 116 121 67 116 118 66 118 130 70 119 135 68 118 132 70 123 133 75 126 138 74 125 130 61 137 120 61 146 92 50 141 77 37 147 77 36 154 87 53 152 112 60 148 117 52 
114 129 70 106 120 57 123 133 71 137 145 82 132 143 79 121 140 73 117 136 68 126 140 88 127 140 91 115 131 74 117 138 73 125 155 75 130 149 81 129 141 81 122 131 75 115 125 72 122 131 76 127 141 80 128 154 86 124 150 79 134 146 83 138 147 94 133 138 88 125 127 78 105 112 65 86 92 51 91 99 55 96 107 59 93 100 52 85 89 47 89 93 51 87 92 45 92 103 47 111 122 64 116 120 70 115 120 73 126 142 91 125 141 85 124 132 74 127 135 78 121 132 68 120 129 63 124 141 69 123 144 69 122 136 68 118 126 67 115 125 64 117 130 70 120 131 72 123 132 71 122 136 72 125 135 77 126 135 80 129 138 80 131 133 79 126 118 72 113 113 64 116 115 66 125 124 74 134 133 82 145 137 84 173 151 83 188 160 73 190 159 63 191 161 69 188 163 75 165 150 69 131 131 61 123 130 69 118 133 72 118 136 78 128 138 80 127 135 75 132 138 81 135 139 90 131 142 91 122 138 78 123 136 74 129 141 78 134 149 87 136 152 88 127 143 77 143 140 77 139 128 73 126 129 78 119 131 74 119 129 71 126 137 76 126 140 74 128 142 75 128 145 84 126 143 80 149 136 70 161 122 62 140 91 51 122 87 48 123 88 45 128 104 58 149 112 61 159 99 51 
108 128 71 105 121 62 122 132 69 131 140 76 125 137 75 120 135 77 118 131 71 125 134 75 132 140 83 128 140 80 123 141 78 125 148 74 129 150 78 125 139 77 123 133 75 121 131 73 125 138 80 134 146 88 124 148 83 118 145 71 126 142 76 131 142 84 129 135 78 115 114 60 98 103 52 91 99 50 99 113 56 106 121 63 106 120 62 107 120 65 119 133 80 116 129 75 116 128 66 116 129 66 112 126 68 122 132 75 129 139 79 130 141 78 136 138 79 142 144 86 141 144 81 132 132 71 125 137 65 128 145 67 131 144 77 128 137 77 121 131 73 119 133 73 122 135 75 120 134 71 123 139 74 131 139 79 133 137 78 130 139 76 129 140 77 133 136 78 129 139 75 124 131 70 125 130 77 136 142 88 155 142 79 189 150 68 211 158 62 215 159 55 218 166 59 215 172 70 197 161 59 164 139 51 135 131 63 119 131 68 111 128 66 122 133 72 127 139 76 127 135 76 136 139 87 131 140 86 115 134 73 129 141 79 143 149 87 145 153 93 146 154 96 137 149 85 147 146 82 150 142 90 137 145 95 127 140 85 130 139 80 136 136 80 131 131 73 122 129 70 127 136 78 128 139 81 130 133 71 137 121 63 132 115 65 123 115 68 110 109 58 118 121 69 129 124 69 129 105 55 
99 123 60 107 130 70 118 139 75 124 139 75 118 136 73 114 136 75 112 132 73 120 131 69 128 140 75 128 147 85 129 148 84 128 147 75 128 144 73 127 141 74 128 139 73 129 142 76 125 143 80 129 148 90 124 148 79 119 145 69 121 140 72 126 142 79 130 143 79 125 131 65 116 118 56 113 122 58 119 134 68 125 139 77 124 138 79 126 139 79 128 142 85 126 138 85 131 136 81 129 133 77 121 134 72 131 134 68 142 133 71 152 132 71 164 133 74 172 141 81 171 146 80 157 138 74 134 136 71 133 147 70 138 152 76 139 147 81 131 141 81 124 139 75 123 140 75 131 143 79 128 142 78 131 137 78 135 139 78 129 141 75 129 146 77 134 148 78 132 148 75 126 139 70 132 141 82 137 146 88 161 143 72 194 139 54 213 137 44 218 137 40 221 143 41 221 154 48 215 161 52 199 154 54 172 142 57 140 134 62 120 129 66 119 136 74 126 142 77 131 140 77 133 138 77 123 133 71 117 132 70 138 142 85 149 146 89 145 144 87 149 146 90 140 148 85 145 151 94 151 154 105 139 150 99 130 140 86 137 140 82 142 136 81 133 127 74 134 130 82 140 140 88 130 139 81 124 134 74 125 128 72 126 129 76 121 126 75 118 124 70 124 129 75 122 132 76 119 123 69 
